luts/BlackMagic/BMD_PC_EE_FILM_V1.cube
# Blackmagic Production Camera 4K Film to Rec709 v1. CD_v6
# DaVinci Resolve Cube (3D LUT).
LUT_3D_SIZE 5
0.000000 0.000000 0.000000
0.340901 0.000000 0.000000
0.667598 0.000000 0.000000
0.925769 0.000000 0.000000
0.996090 0.000000 0.000000
0.000000 0.281545 0.000000
0.313154 0.270677 0.000000
0.655389 0.239006 0.000000
0.923734 0.117208 0.000000
0.996090 0.000000 0.000000
0.000000 0.569765 0.000000
0.220065 0.565039 0.000000
0.621489 0.552222 0.000000
0.918125 0.517022 0.000000
0.996090 0.408355 0.000000
0.000000 0.870868 0.000000
0.000000 0.869792 0.000000
0.520677 0.866872 0.000000
0.901993 0.858873 0.000000
0.996090 0.834783 0.000000
0.000000 0.996090 0.000000
0.000000 0.996090 0.000000
0.000000 0.996090 0.000000
0.843643 0.996090 0.000000
0.996090 0.996090 0.000000
0.000000 0.000000 0.332176
0.286715 0.000000 0.318383
0.644629 0.000000 0.277818
0.921947 0.000000 0.108421
0.996090 0.000000 0.000000
0.000000 0.263982 0.267825
0.252133 0.252257 0.249952
0.631893 0.217562 0.193369
0.919839 0.078500 0.000000
0.996090 0.000000 0.000000
0.000000 0.562209 0.000000
0.111398 0.557408 0.000000
0.596406 0.544379 0.000000
0.914024 0.508538 0.000000
0.996090 0.397114 0.000000
0.000000 0.869147 0.000000
0.000000 0.868053 0.000000
0.489427 0.865087 0.000000
0.897232 0.856952 0.000000
0.996090 0.832389 0.000000
0.000000 0.996090 0.000000
0.000000 0.996090 0.000000
0.000000 0.996090 0.000000
0.835434 0.996090 0.000000
0.996090 0.996090 0.000000
0.000000 0.000000 0.653038
0.013758 0.000000 0.646879
0.578158 0.000000 0.630134
0.911072 0.000000 0.583765
0.996090 0.000000 0.435341
0.000000 0.209125 0.626331
0.000000 0.193668 0.619858
0.563633 0.143781 0.602220
0.908744 0.000000 0.553069
0.996090 0.000000 0.390769
0.000000 0.541484 0.547640
0.000000 0.536464 0.540042
0.522624 0.522819 0.519173
0.902295 0.485097 0.459463
0.996090 0.365215 0.224719
0.000000 0.864429 0.206391
0.000000 0.863287 0.181773
0.391901 0.860188 0.092560
0.883448 0.851669 0.000000
0.996090 0.825746 0.000000
0.000000 0.996090 0.000000
0.000000 0.996090 0.000000
0.000000 0.996090 0.000000
0.810027 0.996090 0.000000
0.996090 0.996090 0.000000
0.000000 0.000000 0.918591
0.000000 0.000000 0.917523
0.334520 0.000000 0.914627
0.876318 0.000000 0.906696
0.996090 0.000000 0.882842
0.000000 0.000000 0.913972
0.000000 0.000000 0.912858
0.306107 0.000000 0.909835
0.873115 0.000000 0.901537
0.996090 0.000000 0.876401
0.000000 0.482461 0.900635
0.000000 0.476706 0.899377
0.209430 0.460968 0.895955
0.864102 0.416633 0.886495
0.996090 0.261045 0.857153
0.000000 0.851077 0.855592
0.000000 0.849788 0.853693
0.000000 0.846279 0.848473
0.836403 0.836563 0.833566
0.996090 0.806264 0.781288
0.000000 0.996090 0.481773
0.000000 0.996090 0.472923
0.000000 0.996090 0.448355
0.696381 0.996090 0.375389
0.996090 0.996090 0.000000
0.000000 0.000000 0.996090
0.000000 0.000000 0.996090
0.000000 0.000000 0.996090
0.635440 0.000000 0.996090
0.996090 0.000000 0.996090
0.000000 0.000000 0.996090
0.000000 0.000000 0.996090
0.000000 0.000000 0.996090
0.622482 0.000000 0.996090
0.996090 0.000000 0.996090
0.000000 0.259278 0.996090
0.000000 0.247300 0.996090
0.000000 0.211692 0.996090
0.586319 0.068608 0.996090
0.996090 0.000000 0.996090
0.000000 0.805971 0.996090
0.000000 0.804024 0.996090
0.000000 0.798665 0.996090
0.476638 0.783324 0.996090
0.996090 0.729576 0.996090
0.000000 0.996090 0.996090
0.000000 0.996090 0.996090
0.000000 0.996090 0.996090
0.000000 0.996090 0.996090
0.996090 0.996090 0.996090
