luts/BlackMagic/BMD_PC_EE_FILM_V2.cube
# Blackmagic Production Camera 4K Film to Rec709 v2. CD_v6
# DaVinci Resolve Cube (3D LUT).
LUT_3D_SIZE 33
0.0000000000 0.0000000000 0.0000000000
0.0204196852 0.0000000000 0.0000000000
0.0870462283 0.0000000000 0.0000000000
0.1451655030 0.0000000000 0.0000000000
0.1943954527 0.0000000000 0.0000000000
0.2393295765 0.0000000000 0.0000000000
0.2819547951 0.0000000000 0.0000000000
0.3233545721 0.0000000000 0.0000000000
0.3642075658 0.0000000000 0.0000000000
0.4049820304 0.0000000000 0.0000000000
0.4460259080 0.0000000000 0.0000000000
0.4876135588 0.0000000000 0.0000000000
0.5299723148 0.0000000000 0.0000000000
0.5732983947 0.0000000000 0.0000000000
0.6177670360 0.0000000000 0.0000000000
0.6635395885 0.0000000000 0.0000000000
0.7107678652 0.0000000000 0.0000000000
0.7595977783 0.0000000000 0.0000000000
0.7954502106 0.0000000000 0.0000000000
0.8223825693 0.0000000000 0.0000000000
0.8444818854 0.0000000000 0.0000000000
0.8635155559 0.0000000000 0.0000000000
0.8804398179 0.0000000000 0.0000000000
0.8958309293 0.0000000000 0.0000000000
0.9100628495 0.0000000000 0.0000000000
0.9233920574 0.0000000000 0.0000000000
0.9360018969 0.0000000000 0.0000000000
0.9480280280 0.0000000000 0.0000000000
0.9595734477 0.0000000000 0.0000000000
0.9707182050 0.0000000000 0.0000000000
0.9815256000 0.0000000000 0.0000000000
0.9920465350 0.0000000000 0.0000000000
1.0000000000 0.0000000000 0.0000000000
0.0000000000 0.0097254384 0.0000000000
0.0120335510 0.0035710325 0.0000000000
0.0785182640 0.0000000000 0.0000000000
0.1392840743 0.0000000000 0.0000000000
0.1897202283 0.0000000000 0.0000000000
0.2354121506 0.0000000000 0.0000000000
0.2785718441 0.0000000000 0.0000000000
0.3203757107 0.0000000000 0.0000000000
0.3615487218 0.0000000000 0.0000000000
0.4025851488 0.0000000000 0.0000000000
0.4438487589 0.0000000000 0.0000000000
0.4856243134 0.0000000000 0.0000000000
0.5281460881 0.0000000000 0.0000000000
0.5716153383 0.0000000000 0.0000000000
0.6162110567 0.0000000000 0.0000000000
0.6620972157 0.0000000000 0.0000000000
0.7094278336 0.0000000000 0.0000000000
0.7583504915 0.0000000000 0.0000000000
0.7947627306 0.0000000000 0.0000000000
0.8218915462 0.0000000000 0.0000000000
0.8441092372 0.0000000000 0.0000000000
0.8632216454 0.0000000000 0.0000000000
0.8802018166 0.0000000000 0.0000000000
0.8956344724 0.0000000000 0.0000000000
0.9098983407 0.0000000000 0.0000000000
0.9232527018 0.0000000000 0.0000000000
0.9358828068 0.0000000000 0.0000000000
0.9479255080 0.0000000000 0.0000000000
0.9594846368 0.0000000000 0.0000000000
0.9706408978 0.0000000000 0.0000000000
0.9814580679 0.0000000000 0.0000000000
0.9919872284 0.0000000000 0.0000000000
1.0000000000 0.0000000000 0.0000000000
0.0000000000 0.0654930919 0.0000000000
0.0036043115 0.0593386889 0.0000000000
0.0700890273 0.0531526469 0.0000000000
0.1331879646 0.0464442782 0.0000000000
0.1849258095 0.0389870666 0.0000000000
0.2314172536 0.0306974184 0.0000000000
0.2751337588 0.0214824118 0.0000000000
0.3173552752 0.0112387473 0.0000000000
0.3588571846 0.0000000000 0.0000000000
0.4001617432 0.0000000000 0.0000000000
0.4416496158 0.0000000000 0.0000000000
0.4836164415 0.0000000000 0.0000000000
0.5263038874 0.0000000000 0.0000000000
0.5699184537 0.0000000000 0.0000000000
0.6146429181 0.0000000000 0.0000000000
0.6606441140 0.0000000000 0.0000000000
0.7080782056 0.0000000000 0.0000000000
0.7570945024 0.0000000000 0.0000000000
0.7940657735 0.0000000000 0.0000000000
0.8213949203 0.0000000000 0.0000000000
0.8437328935 0.0000000000 0.0000000000
0.8629251122 0.0000000000 0.0000000000
0.8799618483 0.0000000000 0.0000000000
0.8954365253 0.0000000000 0.0000000000
0.9097325802 0.0000000000 0.0000000000
0.9231123328 0.0000000000 0.0000000000
0.9357628822 0.0000000000 0.0000000000
0.9478222728 0.0000000000 0.0000000000
0.9593952894 0.0000000000 0.0000000000
0.9705631137 0.0000000000 0.0000000000
0.9813900590 0.0000000000 0.0000000000
0.9919276237 0.0000000000 0.0000000000
1.0000000000 0.0000000000 0.0000000000
0.0000000000 0.1208728626 0.0000000000
0.0000000000 0.1159722507 0.0000000000
0.0609480515 0.1109048352 0.0000000000
0.1263479739 0.1052349210 0.0000000000
0.1796121746 0.0986973569 0.0000000000
0.2270172089 0.0911051258 0.0000000000
0.2713612020 0.0822050646 0.0000000000
0.3140492141 0.0717152357 0.0000000000
0.3559163809 0.0603280924 0.0000000000
0.3975173831 0.0476698168 0.0000000000
0.4392523766 0.0335985199 0.0000000000
0.4814294279 0.0179564655 0.0000000000
0.5242986083 0.0005683167 0.0000000000
0.5680723190 0.0000000000 0.0000000000
0.6129375696 0.0000000000 0.0000000000
0.6590644121 0.0000000000 0.0000000000
0.7066114545 0.0000000000 0.0000000000
0.7557299137 0.0000000000 0.0000000000
0.7933030725 0.0000000000 0.0000000000
0.8208528757 0.0000000000 0.0000000000
0.8433227539 0.0000000000 0.0000000000
0.8626022935 0.0000000000 0.0000000000
0.8797008395 0.0000000000 0.0000000000
0.8952212930 0.0000000000 0.0000000000
0.9095524549 0.0000000000 0.0000000000
0.9229598641 0.0000000000 0.0000000000
0.9356326461 0.0000000000 0.0000000000
0.9477102160 0.0000000000 0.0000000000
0.9592982531 0.0000000000 0.0000000000
0.9704787135 0.0000000000 0.0000000000
0.9813162684 0.0000000000 0.0000000000
0.9918628931 0.0000000000 0.0000000000
1.0000000000 0.0000000000 0.0000000000
0.0000000000 0.1675337404 0.0000000000
0.0000000000 0.1636789441 0.0000000000
0.0507866815 0.1597333699 0.0000000000
0.1184336692 0.1553698033 0.0000000000
0.1735561192 0.1504091918 0.0000000000
0.2220392376 0.1447493583 0.0000000000
0.2671115994 0.1382630318 0.0000000000
0.3103357553 0.1307883710 0.0000000000
0.3526197672 0.1221142113 0.0000000000
0.3945574760 0.1119557247 0.0000000000
0.4365721345 0.0999113247 0.0000000000
0.4789864123 0.0853795856 0.0000000000
0.5220602155 0.0677956939 0.0000000000
0.5660127401 0.0484665371 0.0000000000
0.6110360026 0.0269796979 0.0000000000
0.6573036313 0.0030943172 0.0000000000
0.7049771547 0.0000000000 0.0000000000
0.7542098761 0.0000000000 0.0000000000
0.7924466729 0.0000000000 0.0000000000
0.8202459812 0.0000000000 0.0000000000
0.8428643346 0.0000000000 0.0000000000
0.8622419238 0.0000000000 0.0000000000
0.8794096708 0.0000000000 0.0000000000
0.8949813247 0.0000000000 0.0000000000
0.9093517661 0.0000000000 0.0000000000
0.9227900505 0.0000000000 0.0000000000
0.9354876280 0.0000000000 0.0000000000
0.9475854635 0.0000000000 0.0000000000
0.9591902494 0.0000000000 0.0000000000
0.9703847766 0.0000000000 0.0000000000
0.9812341928 0.0000000000 0.0000000000
0.9917909503 0.0000000000 0.0000000000
1.0000000000 0.0000000000 0.0000000000
0.0000000000 0.2097882777 0.0000000000
0.0000000000 0.2065760493 0.0000000000
0.0394910164 0.2033051550 0.0000000000
0.1092008650 0.1997084916 0.0000000000
0.1666249633 0.1956471801 0.0000000000
0.2163924575 0.1910506785 0.0000000000
0.2623157501 0.1858342737 0.0000000000
0.3061588109 0.1798950136 0.0000000000
0.3489202857 0.1731059104 0.0000000000
0.3912414908 0.1653073579 0.0000000000
0.4335733056 0.1562942713 0.0000000000
0.4762557745 0.1457953006 0.0000000000
0.5195603371 0.1334376931 0.0000000000
0.5637140870 0.1186829135 0.0000000000
0.6089147925 0.1006956995 0.0000000000
0.6553404331 0.0778261796 0.0000000000
0.7031556368 0.0512745120 0.0000000000
0.7525163293 0.0217589289 0.0000000000
0.7914838195 0.0000000000 0.0000000000
0.8195659518 0.0000000000 0.0000000000
0.8423516750 0.0000000000 0.0000000000
0.8618394136 0.0000000000 0.0000000000
0.8790847659 0.0000000000 0.0000000000
0.8947137594 0.0000000000 0.0000000000
0.9091280699 0.0000000000 0.0000000000
0.9226008654 0.0000000000 0.0000000000
0.9353260994 0.0000000000 0.0000000000
0.9474465251 0.0000000000 0.0000000000
0.9590700269 0.0000000000 0.0000000000
0.9702801704 0.0000000000 0.0000000000
0.9811428189 0.0000000000 0.0000000000
0.9917108417 0.0000000000 0.0000000000
1.0000000000 0.0000000000 0.0000000000
0.0000000000 0.2496919036 0.0000000000
0.0000000000 0.2469272763 0.0000000000
0.0269344356 0.2441209406 0.0000000000
0.0983116999 0.2410455942 0.0000000000
0.1586510539 0.2375865728 0.0000000000
0.2099666893 0.2336896956 0.0000000000
0.2568915486 0.2292912900 0.0000000000
0.3014529645 0.2243157923 0.0000000000
0.3447635174 0.2186727077 0.0000000000
0.3875228465 0.2122523338 0.0000000000
0.4302153289 0.2049197555 0.0000000000
0.4732016325 0.1965062320 0.0000000000
0.5167667866 0.1867959350 0.0000000000
0.5611473322 0.1755052358 0.0000000000
0.6065476537 0.1622478515 0.0000000000
0.6531507373 0.1464723498 0.0000000000
0.7011248469 0.1273377240 0.0000000000
0.7506288290 0.1034305915 0.0000000000
0.7903997302 0.0720226243 0.0000000000
0.8188031912 0.0355496965 0.0000000000
0.8417779207 0.0000000000 0.0000000000
0.8613895774 0.0000000000 0.0000000000
0.8787220120 0.0000000000 0.0000000000
0.8944152594 0.0000000000 0.0000000000
0.9088786840 0.0000000000 0.0000000000
0.9223900437 0.0000000000 0.0000000000
0.9351462126 0.0000000000 0.0000000000
0.9472918510 0.0000000000 0.0000000000
0.9589362144 0.0000000000 0.0000000000
0.9701637626 0.0000000000 0.0000000000
0.9810411334 0.0000000000 0.0000000000
0.9916216731 0.0000000000 0.0000000000
1.0000000000 0.0000000000 0.0000000000
0.0000000000 0.2883363366 0.0000000000
0.0000000000 0.2859074473 0.0000000000
0.0129761836 0.2834470570 0.0000000000
0.0852731839 0.2807568610 0.0000000000
0.1494172961 0.2777387798 0.0000000000
0.2026263028 0.2743487060 0.0000000000
0.2507407367 0.2705354989 0.0000000000
0.2961412072 0.2662394047 0.0000000000
0.3400861621 0.2613900602 0.0000000000
0.3833479285 0.2559040189 0.0000000000
0.4264516532 0.2496813536 0.0000000000
0.4697829783 0.2426007837 0.0000000000
0.5136430860 0.2345131636 0.0000000000
0.5582796335 0.2252317369 0.0000000000
0.6039048433 0.2145175338 0.0000000000
0.6507073641 0.2020561844 0.0000000000
0.6988599300 0.1874190122 0.0000000000
0.7485246062 0.1699928939 0.0000000000
0.7891772389 0.1488405317 0.0000000000
0.8179466724 0.1223805621 0.0000000000
0.8411353230 0.0874776170 0.0000000000
0.8608865738 0.0422826000 0.0000000000
0.8783168793 0.0000000000 0.0000000000
0.8940821290 0.0000000000 0.0000000000
0.9086005688 0.0000000000 0.0000000000
0.9221550226 0.0000000000 0.0000000000
0.9349457026 0.0000000000 0.0000000000
0.9471194744 0.0000000000 0.0000000000
0.9587871432 0.0000000000 0.0000000000
0.9700341821 0.0000000000 0.0000000000
0.9809280038 0.0000000000 0.0000000000
0.9915224910 0.0000000000 0.0000000000
1.0000000000 0.0000000000 0.0000000000
0.0000000000 0.3263936937 0.0000000000
0.0000000000 0.3242292702 0.0000000000
0.0000000000 0.3220399916 0.0000000000
0.0695582628 0.3196500242 0.0000000000
0.1386338770 0.3169735372 0.0000000000
0.1942014545 0.3139733672 0.0000000000
0.2437443435 0.3106067181 0.0000000000
0.2901321650 0.3068241179 0.0000000000
0.3348141611 0.3025680482 0.0000000000
0.3786545098 0.2977712154 0.0000000000
0.4222288132 0.2923543453 0.0000000000
0.4659529924 0.2862231731 0.0000000000
0.5101477504 0.2792645395 0.0000000000
0.5550737977 0.2713407278 0.0000000000
0.6009526849 0.2622818947 0.0000000000
0.6479798555 0.2518744469 0.0000000000
0.6963329315 0.2398435771 0.0000000000
0.7461779714 0.2258254886 0.0000000000
0.7877960801 0.2093196958 0.0000000000
0.8169837594 0.1896018535 0.0000000000
0.8404148817 0.1655454785 0.0000000000
0.8603236675 0.1351989657 0.0000000000
0.8778640628 0.0945052430 0.0000000000
0.8937101960 0.0391432419 0.0000000000
0.9082902074 0.0000000000 0.0000000000
0.9218929410 0.0000000000 0.0000000000
0.9347222447 0.0000000000 0.0000000000
0.9469274879 0.0000000000 0.0000000000
0.9586211443 0.0000000000 0.0000000000
0.9698898792 0.0000000000 0.0000000000
0.9808019996 0.0000000000 0.0000000000
0.9914120436 0.0000000000 0.0000000000
1.0000000000 0.0000000000 0.0000000000
0.0000000000 0.3643219769 0.0000000000
0.0000000000 0.3623731434 0.0000000000
0.0000000000 0.3604041040 0.0000000000
0.0523098037 0.3582570553 0.0000000000
0.1258977205 0.3558558226 0.0000000000
0.1844746321 0.3531681895 0.0000000000
0.2357562184 0.3501574695 0.0000000000
0.2833163738 0.3467814624 0.0000000000
0.3288601935 0.3429915011 0.0000000000
0.3733701408 0.3387313485 0.0000000000
0.4174849689 0.3339353204 0.0000000000
0.4616579115 0.3285265863 0.0000000000
0.5062332153 0.3224141896 0.0000000000
0.5514873862 0.3154897392 0.0000000000
0.5976530313 0.3076225221 0.0000000000
0.6449334621 0.2986528277 0.0000000000
0.6935123205 0.2883823812 0.0000000000
0.7435599566 0.2765601575 0.0000000000
0.7862323523 0.2628602684 0.0000000000
0.8158995509 0.2468460798 0.0000000000
0.8396063447 0.2279076278 0.0000000000
0.8596932888 0.2051429451 0.0000000000
0.8773577213 0.1771046221 0.0000000000
0.8932946920 0.1411559135 0.0000000000
0.9079438448 0.0912679359 0.0000000000
0.9216005802 0.0225253701 0.0000000000
0.9344731569 0.0000000000 0.0000000000
0.9467135668 0.0000000000 0.0000000000
0.9584361911 0.0000000000 0.0000000000
0.9697291255 0.0000000000 0.0000000000
0.9806616902 0.0000000000 0.0000000000
0.9912891388 0.0000000000 0.0000000000
1.0000000000 0.0000000000 0.0000000000
0.0000000000 0.4024581015 0.0000000000
0.0000000000 0.4006896019 0.0000000000
0.0000000000 0.3989042342 0.0000000000
0.0331359319 0.3969592750 0.0000000000
0.1106165424 0.3947861493 0.0000000000
0.1731595546 0.3923566937 0.0000000000
0.2265937179 0.3896386623 0.0000000000
0.2755611241 0.3865953684 0.0000000000
0.3221204579 0.3831847906 0.0000000000
0.3674097657 0.3793585300 0.0000000000
0.4121482968 0.3750607669 0.0000000000
0.4568356574 0.3702266812 0.0000000000
0.5018450618 0.3647804856 0.0000000000
0.5474720597 0.3586331606 0.0000000000
0.5939624906 0.3516789079 0.0000000000
0.6415290236 0.3437911570 0.0000000000
0.6903623343 0.3348163366 0.0000000000
0.7406380773 0.3245655894 0.0000000000
0.7844576240 0.3128024936 0.0000000000
0.8146769404 0.2992246747 0.0000000000
0.8386979103 0.2834343910 0.0000000000
0.8589866757 0.2648896873 0.0000000000
0.8767910600 0.2428158671 0.0000000000
0.8928303123 0.2160298526 0.0000000000
0.9075570107 0.1825386137 0.0000000000
0.9212743640 0.1384010911 0.0000000000
0.9341952801 0.0728746206 0.0000000000
0.9464750290 0.0000000000 0.0000000000
0.9582300782 0.0000000000 0.0000000000
0.9695500731 0.0000000000 0.0000000000
0.9805054665 0.0000000000 0.0000000000
0.9911522865 0.0000000000 0.0000000000
1.0000000000 0.0000000000 0.0000000000
0.0000000000 0.4410656691 0.0000000000
0.0000000000 0.4394509494 0.0000000000
0.0000000000 0.4378219545 0.0000000000
0.0118217105 0.4360485375 0.0000000000
0.0918488130 0.4340687096 0.0000000000
0.1598654389 0.4318572581 0.0000000000
0.2160237283 0.4293856621 0.0000000000
0.2667030990 0.4266214669 0.0000000000
0.3144702017 0.4235277474 0.0000000000
0.3606728613 0.4200621545 0.0000000000
0.4061347842 0.4161761999 0.0000000000
0.4514143467 0.4118140042 0.0000000000
0.4969206154 0.4069108069 0.0000000000
0.5429724455 0.4013911784 0.0000000000
0.5898315310 0.3951667547 0.0000000000
0.6377219558 0.3881330788 0.0000000000
0.6868425608 0.3801656365 0.0000000000
0.7373753190 0.3711143434 0.0000000000
0.7824376225 0.3607959449 0.0000000000
0.8132956624 0.3489830494 0.0000000000
0.8376758099 0.3353879154 0.0000000000
0.8581938148 0.3196374178 0.0000000000
0.8761564493 0.3012321591 0.0000000000
0.8923109174 0.2794756293 0.0000000000
0.9071248174 0.2533400357 0.0000000000
0.9209101796 0.2211815268 0.0000000000
0.9338852763 0.1800209880 0.0000000000
0.9462090135 0.1231167838 0.0000000000
0.9580003619 0.0343061388 0.0000000000
0.9693505764 0.0000000000 0.0000000000
0.9803314209 0.0000000000 0.0000000000
0.9909998178 0.0000000000 0.0000000000
1.0000000000 0.0000000000 0.0000000000
0.0000000000 0.4803614914 0.0000000000
0.0000000000 0.4788799882 0.0000000000
0.0000000000 0.4773862064 0.0000000000
0.0000000000 0.4757609069 0.0000000000
0.0682749152 0.4739475548 0.0000000000
0.1440327317 0.4719235301 0.0000000000
0.2037404478 0.4696632028 0.0000000000
0.2565379441 0.4671376050 0.0000000000
0.3057576418 0.4643138349 0.0000000000
0.3530393839 0.4611544013 0.0000000000
0.3993456364 0.4576165378 0.0000000000
0.4453102648 0.4536511898 0.0000000000
0.4913874567 0.4492020011 0.0000000000
0.5379248857 0.4442037642 0.0000000000
0.5852036476 0.4385807812 0.0000000000
0.6334614754 0.4322445095 0.0000000000
0.6829071641 0.4250907600 0.0000000000
0.7337299585 0.4169957340 0.0000000000
0.7801308036 0.4078108966 0.0000000000
0.8117317557 0.3973559439 0.0000000000
0.8365241885 0.3854086995 0.0000000000
0.8573032022 0.3716903031 0.0000000000
0.8754450083 0.3558431566 0.0000000000
0.8917295337 0.3373951018 0.0000000000
0.9066416621 0.3156995773 0.0000000000
0.9205033779 0.2898263633 0.0000000000
0.9335392714 0.2583411336 0.0000000000
0.9459123015 0.2187921405 0.0000000000
0.9577441812 0.1662040949 0.0000000000
0.9691282511 0.0861438215 0.0000000000
0.9801374674 0.0000000000 0.0000000000
0.9908300638 0.0000000000 0.0000000000
1.0000000000 0.0000000000 0.0000000000
0.0000000000 0.5205317736 0.0000000000
0.0000000000 0.5191671252 0.0000000000
0.0000000000 0.5177917480 0.0000000000
0.0000000000 0.5162959695 0.0000000000
0.0419365577 0.5146279931 0.0000000000
0.1248044670 0.5127673149 0.0000000000
0.1893286854 0.5106907487 0.0000000000
0.2448041588 0.5083721876 0.0000000000
0.2957953513 0.5057820678 0.0000000000
0.3443645239 0.5028868318 0.0000000000
0.3916634321 0.4996482730 0.0000000000
0.4384250939 0.4960228801 0.0000000000
0.4851612747 0.4919608533 0.0000000000
0.5322558284 0.4874049425 0.0000000000
0.5800138712 0.4822891355 0.0000000000
0.6286895871 0.4765369296 0.0000000000
0.6785038710 0.4700589776 0.0000000000
0.7296547294 0.4627504945 0.0000000000
0.7774863243 0.4544872940 0.0000000000
0.8099568486 0.4451210499 0.0000000000
0.8352243900 0.4344724715 0.0000000000
0.8563014269 0.4223217368 0.0000000000
0.8746467233 0.4083949924 0.0000000000
0.8910782933 0.3923438787 0.0000000000
0.9061011076 0.3737134635 0.0000000000
0.9200487137 0.3518895209 0.0000000000
0.9331529140 0.3260050714 0.0000000000
0.9455811977 0.2947594225 0.0000000000
0.9574584961 0.2560199797 0.0000000000
0.9688803554 0.2057604939 0.0000000000
0.9799214005 0.1340783238 0.0000000000
0.9906409383 0.0135388514 0.0000000000
1.0000000000 0.0000000000 0.0000000000
0.0000000000 0.5617420077 0.0000000000
0.0000000000 0.5604808927 0.0000000000
0.0000000000 0.5592103004 0.0000000000
0.0000000000 0.5578290224 0.0000000000
0.0126580978 0.5562894344 0.0000000000
0.1007309258 0.5545727015 0.0000000000
0.1721977741 0.5526578426 0.0000000000
0.2311577797 0.5505211949 0.0000000000
0.2843474746 0.5481358171 0.0000000000
0.3344711661 0.5454715490 0.0000000000
0.3829474151 0.5424939990 0.0000000000
0.4306425452 0.5391640663 0.0000000000
0.4781434834 0.5354373455 0.0000000000
0.5258800387 0.5312629342 0.0000000000
0.5741872191 0.5265825391 0.0000000000
0.6233397722 0.5213289857 0.0000000000
0.6735729575 0.5154243708 0.0000000000
0.7250955701 0.5087781549 0.0000000000
0.7744407654 0.5012841821 0.0000000000
0.8079366088 0.4928172231 0.0000000000
0.8337543011 0.4832278490 0.0000000000
0.8551729918 0.4723362625 0.0000000000
0.8737499118 0.4599230886 0.0000000000
0.8903481364 0.4457163811 0.0000000000
0.9054959416 0.4293726385 0.0000000000
0.9195402861 0.4104470909 0.0000000000
0.9327211976 0.3883459270 0.0000000000
0.9452115297 0.3622435927 0.0000000000
0.9571397305 0.3309271038 0.0000000000
0.9686038494 0.2924687266 0.0000000000
0.9796804786 0.2434111536 0.0000000000
0.9904301167 0.1760865748 0.0000000000
1.0000000000 0.0628849491 0.0000000000
0.0000000000 0.6041439772 0.0000000000
0.0000000000 0.6029753089 0.0000000000
0.0000000000 0.6017982960 0.0000000000
0.0000000000 0.6005191207 0.0000000000
0.0000000000 0.5990937948 0.0000000000
0.0692046657 0.5975051522 0.0000000000
0.1514517814 0.5957340002 0.0000000000
0.2151299715 0.5937586427 0.0000000000
0.2711103261 0.5915546417 0.0000000000
0.3231391013 0.5890945196 0.0000000000
0.3730265796 0.5863470435 0.0000000000
0.4218238294 0.5832769871 0.0000000000
0.4702178240 0.5798442960 0.0000000000
0.5186979175 0.5760033727 0.0000000000
0.5676369667 0.5717021227 0.0000000000
0.6173353195 0.5668807626 0.0000000000
0.6680461168 0.5614706278 0.0000000000
0.7199910879 0.5553923249 0.0000000000
0.7709138989 0.5485534668 0.0000000000
0.8056296110 0.5408460498 0.0000000000
0.8320879340 0.5321428776 0.0000000000
0.8538996577 0.5222927928 0.0000000000
0.8727411032 0.5111141801 0.0000000000
0.8895285726 0.4983863533 0.0000000000
0.9048178196 0.4838370979 0.0000000000
0.9189713001 0.4671243131 0.0000000000
0.9322385788 0.4478082657 0.0000000000
0.9447985291 0.4253071547 0.0000000000
0.9567838311 0.3988217115 0.0000000000
0.9682953954 0.3671968877 0.0000000000
0.9794117808 0.3286406994 0.0000000000
0.9901951551 0.2800599635 0.0000000000
1.0000000000 0.2150670290 0.0000000000
0.0000000000 0.6478799582 0.0000000000
0.0000000000 0.6467944980 0.0000000000
0.0000000000 0.6457015872 0.0000000000
0.0000000000 0.6445141435 0.0000000000
0.0000000000 0.6431913972 0.0000000000
0.0330247581 0.6417176723 0.0000000000
0.1255971491 0.6400751472 0.0000000000
0.1960504204 0.6382440925 0.0000000000
0.2556812167 0.6362020373 0.0000000000
0.3100889921 0.6339238882 0.0000000000
0.3616903424 0.6313812137 0.0000000000
0.4118014872 0.6285419464 0.0000000000
0.4612461030 0.6253697872 0.0000000000
0.5105922818 0.6218234301 0.0000000000
0.5602619052 0.6178560257 0.0000000000
0.6105875373 0.6134140491 0.0000000000
0.6618446112 0.6084361076 0.0000000000
0.7142707109 0.6028517485 0.0000000000
0.7668026090 0.5965796113 0.0000000000
0.8029848337 0.5895251632 0.0000000000
0.8301940560 0.5815781355 0.0000000000
0.8524601460 0.5726087093 0.0000000000
0.8716046214 0.5624630451 0.0000000000
0.8886076212 0.5509568453 0.0000000000
0.9040572047 0.5378667712 0.0000000000
0.9183340073 0.5229184031 0.0000000000
0.9316986203 0.5057684183 0.0000000000
0.9443369508 0.4859781861 0.0000000000
0.9563863873 0.4629714787 0.0000000000
0.9679511189 0.4359645247 0.0000000000
0.9791120887 0.4038395882 0.0000000000
0.9899331331 0.3648953438 0.0000000000
1.0000000000 0.3162805438 0.0000000000
0.0000000000 0.6930863261 0.0000000000
0.0000000000 0.6920762658 0.0000000000
0.0000000000 0.6910594106 0.0000000000
0.0000000000 0.6899548769 0.0000000000
0.0000000000 0.6887248158 0.0000000000
0.0000000000 0.6873547435 0.0000000000
0.0917333663 0.6858282089 0.0000000000
0.1728949696 0.6841270924 0.0000000000
0.2375053465 0.6822307110 0.0000000000
0.2949575782 0.6801159978 0.0000000000
0.3486745656 0.6777569652 0.0000000000
0.4003704786 0.6751243472 0.0000000000
0.4510622025 0.6721848845 0.0000000000
0.5014244318 0.6689011455 0.0000000000
0.5519434810 0.6652305722 0.0000000000
0.6029933095 0.6611248255 0.0000000000
0.6548775434 0.6565287709 0.0000000000
0.7078535557 0.6513791680 0.0000000000
0.7619710565 0.6456035376 0.0000000000
0.7999388576 0.6391182542 0.0000000000
0.8280349970 0.6318262815 0.0000000000
0.8508290052 0.6236145496 0.0000000000
0.8703221679 0.6143501997 0.0000000000
0.8875713348 0.6038759947 0.0000000000
0.9032031298 0.5920040011 0.0000000000
0.9176196456 0.5785071850 0.0000000000
0.9310941100 0.5631072521 0.0000000000
0.9438207150 0.5454575419 0.0000000000
0.9559422731 0.5251171589 0.0000000000
0.9675666690 0.5015107393 0.0000000000
0.9787775874 0.4738616645 0.0000000000
0.9896408916 0.4410745502 0.0000000000
1.0000000000 0.4015075564 0.0000000000
0.0000000000 0.7398960590 0.0000000000
0.0000000000 0.7389544845 0.0000000000
0.0000000000 0.7380068302 0.0000000000
0.0000000000 0.7369776368 0.0000000000
0.0000000000 0.7358317375 0.0000000000
0.0000000000 0.7345557213 0.0000000000
0.0471366756 0.7331343889 0.0000000000
0.1439372450 0.7315509319 0.0000000000
0.2157777846 0.7297863364 0.0000000000
0.2772567272 0.7278193831 0.0000000000
0.3336404860 0.7256261706 0.0000000000
0.3872759938 0.7231796980 0.0000000000
0.4394640028 0.7204496264 0.0000000000
0.4910281301 0.7174017429 0.0000000000
0.5425412655 0.7139971852 0.0000000000
0.5944317579 0.7101920247 0.0000000000
0.6470391750 0.7059362531 0.0000000000
0.7006460428 0.7011729479 0.0000000000
