luts/BlackMagic/BMD_CC_EE_FILM_V1.cube
# Blackmagic Cinema Camera Film to Rec709 v1. CD_v6
# DaVinci Resolve Cube (3D LUT).
LUT_3D_SIZE 33
0.000000 0.000000 0.000000
0.027322 0.000000 0.000000
0.076211 0.000000 0.000000
0.125099 0.000000 0.000000
0.168835 0.000000 0.000000
0.207581 0.000000 0.000000
0.245580 0.000000 0.000000
0.284149 0.000000 0.000000
0.324022 0.000000 0.000000
0.365762 0.000000 0.000000
0.409845 0.000000 0.000000
0.456711 0.000000 0.000000
0.506783 0.000000 0.000000
0.560483 0.000000 0.000000
0.618248 0.000000 0.000000
0.680532 0.000000 0.000000
0.747814 0.000000 0.000000
0.804284 0.000000 0.000000
0.847905 0.000000 0.000000
0.884612 0.000000 0.000000
0.917075 0.000000 0.000000
0.946708 0.000000 0.000000
0.974350 0.000000 0.000000
0.986315 0.000000 0.000000
0.986315 0.000000 0.000000
0.986315 0.000000 0.000000
0.986315 0.000000 0.000000
0.986315 0.000000 0.000000
0.986315 0.000000 0.000000
0.986315 0.000000 0.000000
0.986315 0.000000 0.000000
0.986315 0.000000 0.000000
0.986315 0.000000 0.000000
0.000000 0.012425 0.000000
0.012636 0.008555 0.000000
0.061525 0.004685 0.000000
0.110413 0.000814 0.000000
0.157063 0.000000 0.000000
0.198311 0.000000 0.000000
0.237948 0.000000 0.000000
0.277704 0.000000 0.000000
0.318490 0.000000 0.000000
0.360959 0.000000 0.000000
0.405641 0.000000 0.000000
0.453009 0.000000 0.000000
0.503507 0.000000 0.000000
0.557575 0.000000 0.000000
0.615659 0.000000 0.000000
0.678221 0.000000 0.000000
0.745749 0.000000 0.000000
0.803092 0.000000 0.000000
0.847104 0.000000 0.000000
0.884039 0.000000 0.000000
0.916648 0.000000 0.000000
0.946382 0.000000 0.000000
0.974096 0.000000 0.000000
0.986315 0.000000 0.000000
0.986315 0.000000 0.000000
0.986315 0.000000 0.000000
0.986315 0.000000 0.000000
0.986315 0.000000 0.000000
0.986315 0.000000 0.000000
0.986315 0.000000 0.000000
0.986315 0.000000 0.000000
0.986315 0.000000 0.000000
0.986315 0.000000 0.000000
0.000000 0.046409 0.000000
0.000000 0.042538 0.000000
0.046839 0.038668 0.000000
0.095728 0.034797 0.000000
0.144261 0.030927 0.000000
0.188539 0.026451 0.000000
0.230033 0.021065 0.000000
0.271086 0.014554 0.000000
0.312846 0.006682 0.000000
0.356081 0.000000 0.000000
0.401386 0.000000 0.000000
0.449271 0.000000 0.000000
0.500206 0.000000 0.000000
0.554648 0.000000 0.000000
0.613056 0.000000 0.000000
0.675901 0.000000 0.000000
0.743676 0.000000 0.000000
0.801887 0.000000 0.000000
0.846298 0.000000 0.000000
0.883462 0.000000 0.000000
0.916220 0.000000 0.000000
0.946055 0.000000 0.000000
0.973842 0.000000 0.000000
0.986315 0.000000 0.000000
0.986315 0.000000 0.000000
0.986315 0.000000 0.000000
0.986315 0.000000 0.000000
0.986315 0.000000 0.000000
0.986315 0.000000 0.000000
0.986315 0.000000 0.000000
0.986315 0.000000 0.000000
0.986315 0.000000 0.000000
0.986315 0.000000 0.000000
0.000000 0.080392 0.000000
0.000000 0.076521 0.000000
0.032153 0.072651 0.000000
0.081042 0.068780 0.000000
0.129931 0.064910 0.000000
0.178179 0.060435 0.000000
0.221801 0.055048 0.000000
0.264279 0.048537 0.000000
0.307083 0.040665 0.000000
0.351125 0.031149 0.000000
0.397077 0.019644 0.000000
0.445496 0.005735 0.000000
0.496880 0.000000 0.000000
0.551704 0.000000 0.000000
0.610440 0.000000 0.000000
0.673571 0.000000 0.000000
0.741596 0.000000 0.000000
0.800670 0.000000 0.000000
0.845485 0.000000 0.000000
0.882883 0.000000 0.000000
0.915789 0.000000 0.000000
0.945727 0.000000 0.000000
0.973587 0.000000 0.000000
0.986315 0.000000 0.000000
0.986315 0.000000 0.000000
0.986315 0.000000 0.000000
0.986315 0.000000 0.000000
0.986315 0.000000 0.000000
0.986315 0.000000 0.000000
0.986315 0.000000 0.000000
0.986315 0.000000 0.000000
0.986315 0.000000 0.000000
0.986315 0.000000 0.000000
0.000000 0.114375 0.000000
0.000000 0.110505 0.000000
0.017467 0.106634 0.000000
0.066356 0.102764 0.000000
0.115245 0.098893 0.000000
0.167119 0.094418 0.000000
0.213215 0.089032 0.000000
0.257269 0.082520 0.000000
0.301194 0.074648 0.000000
0.346087 0.065132 0.000000
0.392714 0.053627 0.000000
0.441684 0.039718 0.000000
0.493527 0.022903 0.000000
0.548740 0.002575 0.000000
0.607812 0.000000 0.000000
0.671232 0.000000 0.000000
0.739510 0.000000 0.000000
0.799438 0.000000 0.000000
0.844666 0.000000 0.000000
0.882300 0.000000 0.000000
0.915357 0.000000 0.000000
0.945398 0.000000 0.000000
0.973332 0.000000 0.000000
0.986315 0.000000 0.000000
0.986315 0.000000 0.000000
0.986315 0.000000 0.000000
0.986315 0.000000 0.000000
0.986315 0.000000 0.000000
0.986315 0.000000 0.000000
0.986315 0.000000 0.000000
0.986315 0.000000 0.000000
0.986315 0.000000 0.000000
0.986315 0.000000 0.000000
0.000000 0.152289 0.000000
0.000000 0.148914 0.000000
0.000486 0.145454 0.000000
0.049375 0.141906 0.000000
0.098263 0.138261 0.000000
0.153255 0.133916 0.000000
0.202783 0.128327 0.000000
0.248886 0.121816 0.000000
0.294216 0.113944 0.000000
0.340154 0.104428 0.000000
0.387598 0.092923 0.000000
0.437227 0.079014 0.000000
0.489616 0.062199 0.000000
0.545290 0.041871 0.000000
0.604755 0.017296 0.000000
0.668515 0.000000 0.000000
0.737089 0.000000 0.000000
0.797997 0.000000 0.000000
0.843712 0.000000 0.000000
0.881623 0.000000 0.000000
0.914856 0.000000 0.000000
0.945016 0.000000 0.000000
0.973035 0.000000 0.000000
0.986315 0.000000 0.000000
0.986315 0.000000 0.000000
0.986315 0.000000 0.000000
0.986315 0.000000 0.000000
0.986315 0.000000 0.000000
0.986315 0.000000 0.000000
0.986315 0.000000 0.000000
0.986315 0.000000 0.000000
0.986315 0.000000 0.000000
0.986315 0.000000 0.000000
0.000000 0.188411 0.000000
0.000000 0.185740 0.000000
0.000000 0.183026 0.000000
0.028938 0.180267 0.000000
0.077827 0.177462 0.000000
0.134550 0.174157 0.000000
0.189387 0.170087 0.000000
0.238356 0.165022 0.000000
0.285562 0.158666 0.000000
0.332854 0.150596 0.000000
0.381336 0.140179 0.000000
0.431793 0.126304 0.000000
0.484861 0.109489 0.000000
0.541104 0.089161 0.000000
0.601052 0.064586 0.000000
0.665228 0.034876 0.000000
0.734162 0.000000 0.000000
0.796237 0.000000 0.000000
0.842553 0.000000 0.000000
0.880802 0.000000 0.000000
0.914249 0.000000 0.000000
0.944555 0.000000 0.000000
0.972678 0.000000 0.000000
0.986315 0.000000 0.000000
0.986315 0.000000 0.000000
0.986315 0.000000 0.000000
0.986315 0.000000 0.000000
0.986315 0.000000 0.000000
0.986315 0.000000 0.000000
0.986315 0.000000 0.000000
0.986315 0.000000 0.000000
0.986315 0.000000 0.000000
0.986315 0.000000 0.000000
0.000000 0.223871 0.000000
0.000000 0.221668 0.000000
0.000000 0.219440 0.000000
0.004232 0.217186 0.000000
0.053121 0.214906 0.000000
0.109652 0.212236 0.000000
0.171661 0.208972 0.000000
0.224887 0.204950 0.000000
0.274684 0.199969 0.000000
0.323775 0.193757 0.000000
0.373602 0.185944 0.000000
0.425115 0.175991 0.000000
0.479039 0.163075 0.000000
0.535992 0.145818 0.000000
0.596539 0.121757 0.000000
0.661228 0.092047 0.000000
0.730606 0.056129 0.000000
0.794071 0.012707 0.000000
0.841134 0.000000 0.000000
0.879801 0.000000 0.000000
0.913511 0.000000 0.000000
0.943994 0.000000 0.000000
0.972244 0.000000 0.000000
0.986315 0.000000 0.000000
0.986315 0.000000 0.000000
0.986315 0.000000 0.000000
0.986315 0.000000 0.000000
0.986315 0.000000 0.000000
0.986315 0.000000 0.000000
0.986315 0.000000 0.000000
0.986315 0.000000 0.000000
0.986315 0.000000 0.000000
0.986315 0.000000 0.000000
0.000000 0.259773 0.000000
0.000000 0.257910 0.000000
0.000000 0.256031 0.000000
0.000000 0.254137 0.000000
0.023252 0.252227 0.000000
0.079783 0.249998 0.000000
0.147150 0.247286 0.000000
0.207299 0.243962 0.000000
0.260846 0.239874 0.000000
0.312395 0.234825 0.000000
0.363999 0.228555 0.000000
0.416875 0.220709 0.000000
0.471888 0.210790 0.000000
0.529734 0.198061 0.000000
0.591029 0.181359 0.000000
0.656354 0.158606 0.000000
0.726278 0.125245 0.000000
0.791395 0.081823 0.000000
0.839395 0.029328 0.000000
0.878579 0.000000 0.000000
0.912612 0.000000 0.000000
0.943313 0.000000 0.000000
0.971717 0.000000 0.000000
0.986315 0.000000 0.000000
0.986315 0.000000 0.000000
0.986315 0.000000 0.000000
0.986315 0.000000 0.000000
0.986315 0.000000 0.000000
0.986315 0.000000 0.000000
0.986315 0.000000 0.000000
0.986315 0.000000 0.000000
0.986315 0.000000 0.000000
0.986315 0.000000 0.000000
0.000000 0.296827 0.000000
0.000000 0.295226 0.000000
0.000000 0.293616 0.000000
0.000000 0.291995 0.000000
0.000000 0.290364 0.000000
0.043674 0.288465 0.000000
0.111706 0.286161 0.000000
0.183543 0.283347 0.000000
0.242926 0.279902 0.000000
0.297972 0.275673 0.000000
0.351986 0.270459 0.000000
0.406655 0.264001 0.000000
0.463070 0.255946 0.000000
0.522050 0.245812 0.000000
0.584286 0.232897 0.000000
0.650403 0.216128 0.000000
0.721006 0.193700 0.000000
0.788070 0.162046 0.000000
0.837255 0.112885 0.000000
0.877084 0.049423 0.000000
0.911516 0.000000 0.000000
0.942484 0.000000 0.000000
0.971077 0.000000 0.000000
0.986315 0.000000 0.000000
0.986315 0.000000 0.000000
0.986315 0.000000 0.000000
0.986315 0.000000 0.000000
0.986315 0.000000 0.000000
0.986315 0.000000 0.000000
0.986315 0.000000 0.000000
0.986315 0.000000 0.000000
0.986315 0.000000 0.000000
0.986315 0.000000 0.000000
0.000000 0.335571 0.000000
0.000000 0.334181 0.000000
0.000000 0.332784 0.000000
0.000000 0.331380 0.000000
0.000000 0.329969 0.000000
0.000021 0.328329 0.000000
0.068053 0.326343 0.000000
0.149354 0.323924 0.000000
0.219057 0.320971 0.000000
0.279399 0.317359 0.000000
0.336800 0.312929 0.000000
0.393887 0.307475 0.000000
0.452141 0.300732 0.000000
0.512581 0.292342 0.000000
0.576009 0.281819 0.000000
0.643123 0.268471 0.000000
0.714570 0.251259 0.000000
0.783912 0.228497 0.000000
0.834611 0.197055 0.000000
0.875248 0.149475 0.000000
0.910175 0.073715 0.000000
0.941474 0.000000 0.000000
0.970298 0.000000 0.000000
0.986315 0.000000 0.000000
0.986315 0.000000 0.000000
0.986315 0.000000 0.000000
0.986315 0.000000 0.000000
0.986315 0.000000 0.000000
0.986315 0.000000 0.000000
0.986315 0.000000 0.000000
0.986315 0.000000 0.000000
0.986315 0.000000 0.000000
0.986315 0.000000 0.000000
0.000000 0.376457 0.000000
0.000000 0.375239 0.000000
0.000000 0.374017 0.000000
0.000000 0.372791 0.000000
0.000000 0.371559 0.000000
0.000000 0.370129 0.000000
0.015279 0.368400 0.000000
0.097525 0.366297 0.000000
0.185646 0.363736 0.000000
0.254886 0.360612 0.000000
0.317323 0.356793 0.000000
0.377781 0.352112 0.000000
0.438503 0.346356 0.000000
0.500852 0.339247 0.000000
0.565813 0.330417 0.000000
0.634189 0.319368 0.000000
0.706696 0.305398 0.000000
0.778666 0.287471 0.000000
0.831328 0.263941 0.000000
0.872987 0.231881 0.000000
0.908533 0.184865 0.000000
0.940239 0.103083 0.000000
0.969349 0.000000 0.000000
0.986315 0.000000 0.000000
0.986315 0.000000 0.000000
0.986315 0.000000 0.000000
0.986315 0.000000 0.000000
0.986315 0.000000 0.000000
0.986315 0.000000 0.000000
0.986315 0.000000 0.000000
0.986315 0.000000 0.000000
0.986315 0.000000 0.000000
0.986315 0.000000 0.000000
0.000000 0.419896 0.000000
0.000000 0.418824 0.000000
0.000000 0.417748 0.000000
0.000000 0.416669 0.000000
0.000000 0.415587 0.000000
0.000000 0.414332 0.000000
0.000000 0.412815 0.000000
0.033724 0.410972 0.000000
0.133363 0.408732 0.000000
0.221152 0.406005 0.000000
0.291780 0.402679 0.000000
0.357185 0.398615 0.000000
0.421327 0.393638 0.000000
0.486229 0.387521 0.000000
0.553190 0.379974 0.000000
0.623186 0.370612 0.000000
0.697037 0.358917 0.000000
0.771972 0.344165 0.000000
0.827224 0.325298 0.000000
0.870191 0.300670 0.000000
0.906514 0.267424 0.000000
0.938728 0.219630 0.000000
0.968190 0.138641 0.000000
0.986315 0.003027 0.000000
0.986315 0.000000 0.000000
0.986315 0.000000 0.000000
0.986315 0.000000 0.000000
0.986315 0.000000 0.000000
0.986315 0.000000 0.000000
0.986315 0.000000 0.000000
0.986315 0.000000 0.000000
0.986315 0.000000 0.000000
0.986315 0.000000 0.000000
0.000000 0.466285 0.000000
0.000000 0.465336 0.000000
0.000000 0.464384 0.000000
0.000000 0.463431 0.000000
0.000000 0.462475 0.000000
0.000000 0.461367 0.000000
0.000000 0.460029 0.000000
0.000000 0.458405 0.000000
0.056024 0.456433 0.000000
0.170555 0.454037 0.000000
0.257025 0.451119 0.000000
0.330297 0.447562 0.000000
0.399410 0.443217 0.000000
0.467834 0.437898 0.000000
0.537462 0.431365 0.000000
0.609570 0.423311 0.000000
0.685143 0.413329 0.000000
0.765030 0.400875 0.000000
0.822049 0.385194 0.000000
0.866712 0.365191 0.000000
0.904023 0.339181 0.000000
0.936874 0.304304 0.000000
0.966773 0.254841 0.000000
0.986315 0.174535 0.000000
0.986315 0.017626 0.000000
0.986315 0.000000 0.000000
0.986315 0.000000 0.000000
0.986315 0.000000 0.000000
0.986315 0.000000 0.000000
0.986315 0.000000 0.000000
0.986315 0.000000 0.000000
0.986315 0.000000 0.000000
0.986315 0.000000 0.000000
0.000000 0.516018 0.000000
0.000000 0.515175 0.000000
0.000000 0.514330 0.000000
0.000000 0.513484 0.000000
0.000000 0.512636 0.000000
0.000000 0.511654 0.000000
0.000000 0.510469 0.000000
0.000000 0.509032 0.000000
0.000000 0.507288 0.000000
0.082983 0.505171 0.000000
0.206212 0.502597 0.000000
0.294002 0.499465 0.000000
0.370896 0.495647 0.000000
0.444400 0.490985 0.000000
0.517696 0.485280 0.000000
0.592614 0.478275 0.000000
0.670429 0.469644 0.000000
0.752156 0.458956 0.000000
0.815450 0.445634 0.000000
0.862355 0.428881 0.000000
0.900934 0.407554 0.000000
0.934589 0.379904 0.000000
0.965035 0.343011 0.000000
0.986315 0.291193 0.000000
0.986315 0.209346 0.000000
0.986315 0.035275 0.000000
0.986315 0.000000 0.000000
0.986315 0.000000 0.000000
0.986315 0.000000 0.000000
0.986315 0.000000 0.000000
0.986315 0.000000 0.000000
0.986315 0.000000 0.000000
0.986315 0.000000 0.000000
0.000000 0.569499 0.000000
0.000000 0.568748 0.000000
0.000000 0.567997 0.000000
0.000000 0.567244 0.000000
0.000000 0.566490 0.000000
0.000000 0.565616 0.000000
0.000000 0.564563 0.000000
0.000000 0.563287 0.000000
0.000000 0.561739 0.000000
0.000000 0.559861 0.000000
0.115575 0.557581 0.000000
0.241824 0.554810 0.000000
0.332628 0.551438 0.000000
0.413994 0.547329 0.000000
0.492550 0.542312 0.000000
0.571320 0.536174 0.000000
0.652115 0.528641 0.000000
0.736233 0.519363 0.000000
0.806906 0.507880 0.000000
0.856847 0.493578 0.000000
0.897081 0.475613 0.000000
0.931762 0.452776 0.000000
0.962897 0.423237 0.000000
0.986315 0.383970 0.000000
0.986315 0.329209 0.000000
0.986315 0.244342 0.000000
0.986315 0.056612 0.000000
0.986315 0.000000 0.000000
0.986315 0.000000 0.000000
0.986315 0.000000 0.000000
0.986315 0.000000 0.000000
0.986315 0.000000 0.000000
0.986315 0.000000 0.000000
0.000000 0.627151 0.000000
0.000000 0.626481 0.000000
0.000000 0.625810 0.000000
0.000000 0.625139 0.000000
0.000000 0.624466 0.000000
0.000000 0.623688 0.000000
0.000000 0.622749 0.000000
0.000000 0.621612 0.000000
0.000000 0.620235 0.000000
0.000000 0.618564 0.000000
0.000000 0.616538 0.000000
0.153410 0.614078 0.000000
0.278262 0.611087 0.000000
0.373364 0.607449 0.000000
0.459987 0.603017 0.000000
0.544259 0.597606 0.000000
0.629128 0.590987 0.000000
0.716421 0.582866 0.000000
0.795607 0.572867 0.000000
0.849798 0.560498 0.000000
0.892235 0.545102 0.000000
0.928245 0.525778 0.000000
0.960256 0.501244 0.000000
0.986315 0.469565 0.000000
0.986315 0.427575 0.000000
0.986315 0.369332 0.000000
0.986315 0.280297 0.000000
0.986315 0.082407 0.000000
0.986315 0.000000 0.000000
0.986315 0.000000 0.000000
0.986315 0.000000 0.000000
0.986315 0.000000 0.000000
0.986315 0.000000 0.000000
0.000000 0.689417 0.000000
0.000000 0.688819 0.000000
0.000000 0.688219 0.000000
0.000000 0.687619 0.000000
0.000000 0.687018 0.000000
0.000000 0.686323 0.000000
0.000000 0.685485 0.000000
0.000000 0.684470 0.000000
0.000000 0.683241 0.000000
0.000000 0.681752 0.000000
0.000000 0.679946 0.000000
0.000000 0.677755 0.000000
0.189537 0.675096 0.000000
0.316134 0.671864 0.000000
0.416621 0.667932 0.000000
0.509272 0.663142 0.000000
0.599940 0.657295 0.000000
0.691566 0.650144 0.000000
0.780195 0.641373 0.000000
0.840628 0.630576 0.000000
0.886078 0.617225 0.000000
0.923838 0.600614 0.000000
0.956976 0.579781 0.000000
0.986315 0.553353 0.000000
0.986315 0.519277 0.000000
0.986315 0.474212 0.000000
0.986315 0.411965 0.000000
0.986315 0.317772 0.000000
0.986315 0.113591 0.000000
0.986315 0.000000 0.000000
0.986315 0.000000 0.000000
0.986315 0.000000 0.000000
0.986315 0.000000 0.000000
0.000000 0.756773 0.000000
0.000000 0.756237 0.000000
0.000000 0.755700 0.000000
0.000000 0.755163 0.000000
0.000000 0.754626 0.000000
0.000000 0.754004 0.000000
0.000000 0.753254 0.000000
0.000000 0.752347 0.000000
0.000000 0.751248 0.000000
0.000000 0.749918 0.000000
0.000000 0.748305 0.000000
0.000000 0.746350 0.000000
0.003428 0.743979 0.000000
0.225037 0.741100 0.000000
0.355930 0.737602 0.000000
0.462798 0.733347 0.000000
0.562251 0.728162 0.000000
0.660027 0.721836 0.000000
0.759108 0.714099 0.000000
0.828415 0.704611 0.000000
0.878143 0.692934 0.000000
0.918264 0.678498 0.000000
0.952875 0.660546 0.000000
0.983963 0.638041 0.000000
0.986315 0.609516 0.000000
0.986315 0.572775 0.000000
0.986315 0.524273 0.000000
0.986315 0.457496 0.000000
0.986315 0.357230 0.000000
0.986315 0.150223 0.000000
0.986315 0.000000 0.000000
0.986315 0.000000 0.000000
0.986315 0.000000 0.000000
0.000000 0.810021 0.000000
0.000000 0.809725 0.000000
0.000000 0.809427 0.000000
0.000000 0.809128 0.000000
0.000000 0.808829 0.000000
0.000000 0.808482 0.000000
0.000000 0.808063 0.000000
0.000000 0.807554 0.000000
0.000000 0.806935 0.000000
0.000000 0.806183 0.000000
0.000000 0.805267 0.000000
0.000000 0.804148 0.000000
0.000000 0.802781 0.000000
0.019398 0.801106 0.000000
0.261000 0.799046 0.000000
0.398076 0.796502 0.000000
0.512289 0.793347 0.000000
0.619343 0.789408 0.000000
0.724980 0.784450 0.000000
0.811580 0.778143 0.000000
0.867720 0.770002 0.000000
0.911125 0.760412 0.000000
0.947706 0.744783 0.000000
0.980086 0.725353 0.000000
0.986315 0.701007 0.000000
0.986315 0.670165 0.000000
0.986315 0.630477 0.000000
0.986315 0.578158 0.000000
0.986315 0.506311 0.000000
0.986315 0.399080 0.000000
0.986315 0.185585 0.000000
0.986315 0.010010 0.000000
0.986315 0.010010 0.000000
0.000000 0.852354 0.000000
0.000000 0.852152 0.000000
0.000000 0.851949 0.000000
0.000000 0.851746 0.000000
0.000000 0.851543 0.000000
0.000000 0.851307 0.000000
0.000000 0.851023 0.000000
0.000000 0.850679 0.000000
0.000000 0.850261 0.000000
0.000000 0.849753 0.000000
0.000000 0.849137 0.000000
0.000000 0.848387 0.000000
0.000000 0.847474 0.000000
0.000000 0.846359 0.000000
0.038704 0.844997 0.000000
0.298132 0.843327 0.000000
0.442976 0.841274 0.000000
0.565498 0.838739 0.000000
0.680990 0.835595 0.000000
0.787057 0.831671 0.000000
0.853643 0.826732 0.000000
0.901828 0.820450 0.000000
0.941114 0.812344 0.000000
0.975210 0.801676 0.000000
0.986315 0.787228 0.000000
0.986315 0.769154 0.000000
0.986315 0.735763 0.000000
0.986315 0.692826 0.000000
0.986315 0.636289 0.000000
0.986315 0.558809 0.000000
0.986315 0.443714 0.000000
0.986315 0.391705 0.000000
0.986315 0.391705 0.000000
0.000000 0.888302 0.000000
0.000000 0.888156 0.000000
0.000000 0.888010 0.000000
0.000000 0.887863 0.000000
0.000000 0.887717 0.000000
0.000000 0.887547 0.000000
0.000000 0.887343 0.000000
0.000000 0.887095 0.000000
0.000000 0.886795 0.000000
0.000000 0.886431 0.000000
0.000000 0.885989 0.000000
0.000000 0.885453 0.000000
0.000000 0.884801 0.000000
0.000000 0.884008 0.000000
0.000000 0.883041 0.000000
0.062045 0.881861 0.000000
0.336968 0.880417 0.000000
0.491023 0.878646 0.000000
0.622847 0.876466 0.000000
0.747661 0.873772 0.000000
0.833809 0.870425 0.000000
0.889430 0.866238 0.000000
0.932580 0.860954 0.000000
0.969011 0.854208 0.000000
0.986315 0.845460 0.000000
0.986315 0.833865 0.000000
0.986315 0.817994 0.000000
0.986315 0.795147 0.000000
0.986315 0.760295 0.000000
0.986315 0.699112 0.000000
0.986315 0.615403 0.000000
0.986315 0.581241 0.000000
0.986315 0.581241 0.000000
0.000000 0.920271 0.000000
0.000000 0.920162 0.000000
0.000000 0.920053 0.000000
0.000000 0.919944 0.000000
0.000000 0.919834 0.000000
0.000000 0.919707 0.000000
0.000000 0.919555 0.000000
0.000000 0.919370 0.000000
0.000000 0.919146 0.000000
0.000000 0.918875 0.000000
0.000000 0.918546 0.000000
0.000000 0.918147 0.000000
0.000000 0.917662 0.000000
0.000000 0.917074 0.000000
0.000000 0.916359 0.000000
0.000000 0.915487 0.000000
0.090261 0.914425 0.000000
0.377959 0.913127 0.000000
0.542617 0.911537 0.000000
0.684776 0.909583 0.000000
0.803804 0.907174 0.000000
0.872303 0.904190 0.000000
0.921295 0.900470 0.000000
0.961019 0.895800 0.000000
0.986315 0.889876 0.000000
0.986315 0.882262 0.000000
0.986315 0.872294 0.000000
0.986315 0.858901 0.000000
0.986315 0.840184 0.000000
0.986315 0.812268 0.000000
0.986315 0.767102 0.000000
0.986315 0.741121 0.000000
0.986315 0.741121 0.000000
0.000000 0.949564 0.000000
0.000000 0.949480 0.000000
0.000000 0.949396 0.000000
0.000000 0.949313 0.000000
0.000000 0.949229 0.000000
0.000000 0.949132 0.000000
0.000000 0.949015 0.000000
0.000000 0.948873 0.000000
0.000000 0.948702 0.000000
0.000000 0.948494 0.000000
0.000000 0.948243 0.000000
0.000000 0.947938 0.000000
0.000000 0.947569 0.000000
0.000000 0.947121 0.000000
0.000000 0.946576 0.000000
0.000000 0.945914 0.000000
0.000000 0.945109 0.000000
0.124373 0.944128 0.000000
0.421516 0.942929 0.000000
0.598170 0.941463 0.000000
0.751759 0.939664 0.000000
0.847263 0.937449 0.000000
0.905904 0.934710 0.000000
0.950514 0.931306 0.000000
0.986315 0.927045 0.000000
0.986315 0.921663 0.000000
0.986315 0.914786 0.000000
0.986315 0.905855 0.000000
0.986315 0.893993 0.000000
0.986315 0.877708 0.000000
0.986315 0.854145 0.000000
0.986315 0.844107 0.000000
0.986315 0.844107 0.000000
0.000000 0.976960 0.000000
0.000000 0.976895 0.000000
0.000000 0.976829 0.000000
0.000000 0.976764 0.000000
0.000000 0.976699 0.000000
0.000000 0.976623 0.000000
0.000000 0.976532 0.000000
0.000000 0.976422 0.000000
0.000000 0.976288 0.000000
0.000000 0.976127 0.000000
0.000000 0.975931 0.000000
0.000000 0.975694 0.000000
0.000000 0.975407 0.000000
0.000000 0.975059 0.000000
0.000000 0.974637 0.000000
0.000000 0.974124 0.000000
0.000000 0.973501 0.000000
0.000000 0.972743 0.000000
0.162234 0.971820 0.000000
0.468035 0.970693 0.000000
0.658115 0.969315 0.000000
0.806635 0.967626 0.000000
0.883875 0.965550 0.000000
0.936314 0.962986 0.000000
0.977858 0.959804 0.000000
0.986315 0.955831 0.000000
0.986315 0.950828 0.000000
0.986315 0.944461 0.000000
0.986315 0.936237 0.000000
0.986315 0.925400 0.000000
0.986315 0.910695 0.000000
0.986315 0.904795 0.000000
0.986315 0.904795 0.000000
0.000000 0.986315 0.000000
0.000000 0.986315 0.000000
0.000000 0.986315 0.000000
0.000000 0.986315 0.000000
0.000000 0.986315 0.000000
0.000000 0.986315 0.000000
0.000000 0.986315 0.000000
0.000000 0.986315 0.000000
0.000000 0.986315 0.000000
0.000000 0.986315 0.000000
0.000000 0.986315 0.000000
0.000000 0.986315 0.000000
0.000000 0.986315 0.000000
0.000000 0.986315 0.000000
0.000000 0.986315 0.000000
0.000000 0.986315 0.000000
0.000000 0.986315 0.000000
0.000000 0.986315 0.000000
0.000000 0.986315 0.000000
0.198075 0.986315 0.000000
0.517913 0.986315 0.000000
0.722911 0.986315 0.000000
0.849576 0.986315 0.000000
0.916277 0.986315 0.000000
0.964511 0.986315 0.000000
0.986315 0.986315 0.000000
0.986315 0.982860 0.000000
0.986315 0.978133 0.000000
0.986315 0.972133 0.000000
0.986315 0.964415 0.000000
0.986315 0.954301 0.000000
0.986315 0.950362 0.000000
0.986315 0.950362 0.000000
0.000000 0.986315 0.000000
0.000000 0.986315 0.000000
0.000000 0.986315 0.000000
0.000000 0.986315 0.000000
0.000000 0.986315 0.000000
0.000000 0.986315 0.000000
0.000000 0.986315 0.000000
0.000000 0.986315 0.000000
0.000000 0.986315 0.000000
0.000000 0.986315 0.000000
0.000000 0.986315 0.000000
0.000000 0.986315 0.000000
0.000000 0.986315 0.000000
0.000000 0.986315 0.000000
0.000000 0.986315 0.000000
0.000000 0.986315 0.000000
0.000000 0.986315 0.000000
0.000000 0.986315 0.000000
0.000000 0.986315 0.000000
0.000000 0.986315 0.000000
0.233607 0.986315 0.000000
0.571553 0.986315 0.000000
0.785429 0.986315 0.000000
0.885885 0.986315 0.000000
0.945867 0.986315 0.000000
0.986315 0.986315 0.000000
0.986315 0.986315 0.000000
