luts/BlackMagic/BMD_CC_EE_FILM_V1.cube
# Blackmagic Cinema Camera Film to Rec709 v1. CD_v6
# DaVinci Resolve Cube (3D LUT).
LUT_3D_SIZE 9
0.000000 0.000000 0.000000
0.168835 0.000000 0.000000
0.324022 0.000000 0.000000
0.506783 0.000000 0.000000
0.747814 0.000000 0.000000
0.917075 0.000000 0.000000
0.986315 0.000000 0.000000
0.986315 0.000000 0.000000
0.986315 0.000000 0.000000
0.000000 0.114375 0.000000
0.115245 0.098893 0.000000
0.301194 0.074648 0.000000
0.493527 0.022903 0.000000
0.739510 0.000000 0.000000
0.915357 0.000000 0.000000
0.986315 0.000000 0.000000
0.986315 0.000000 0.000000
0.986315 0.000000 0.000000
0.000000 0.259773 0.000000
0.023252 0.252227 0.000000
0.260846 0.239874 0.000000
0.471888 0.210790 0.000000
0.726278 0.125245 0.000000
0.912612 0.000000 0.000000
0.986315 0.000000 0.000000
0.986315 0.000000 0.000000
0.986315 0.000000 0.000000
0.000000 0.419896 0.000000
0.000000 0.415587 0.000000
0.133363 0.408732 0.000000
0.421327 0.393638 0.000000
0.697037 0.358917 0.000000
0.906514 0.267424 0.000000
0.986315 0.000000 0.000000
0.986315 0.000000 0.000000
0.986315 0.000000 0.000000
0.000000 0.627151 0.000000
0.000000 0.624466 0.000000
0.000000 0.620235 0.000000
0.278262 0.611087 0.000000
0.629128 0.590987 0.000000
0.892235 0.545102 0.000000
0.986315 0.427575 0.000000
0.986315 0.000000 0.000000
0.986315 0.000000 0.000000
0.000000 0.852354 0.000000
0.000000 0.851543 0.000000
0.000000 0.850261 0.000000
0.000000 0.847474 0.000000
0.442976 0.841274 0.000000
0.853643 0.826732 0.000000
0.986315 0.787228 0.000000
0.986315 0.636289 0.000000
0.986315 0.391705 0.000000
0.000000 0.976960 0.000000
0.000000 0.976699 0.000000
0.000000 0.976288 0.000000
0.000000 0.975407 0.000000
0.000000 0.973501 0.000000
0.658115 0.969315 0.000000
0.977858 0.959804 0.000000
0.986315 0.936237 0.000000
0.986315 0.904795 0.000000
0.000000 0.986315 0.000000
0.000000 0.986315 0.000000
0.000000 0.986315 0.000000
0.000000 0.986315 0.000000
0.000000 0.986315 0.000000
0.000000 0.986315 0.000000
0.871207 0.986315 0.000000
0.986315 0.986315 0.000000
0.986315 0.986315 0.000000
0.000000 0.986315 0.000000
0.000000 0.986315 0.000000
0.000000 0.986315 0.000000
0.000000 0.986315 0.000000
0.000000 0.986315 0.000000
0.000000 0.986315 0.000000
0.000000 0.986315 0.000000
0.986315 0.986315 0.000000
0.986315 0.986315 0.000000
0.000000 0.000000 0.168138
0.146004 0.000000 0.144790
0.313591 0.000000 0.101522
0.500639 0.000000 0.008307
0.743948 0.000000 0.000000
0.916276 0.000000 0.000000
0.986315 0.000000 0.000000
0.986315 0.000000 0.000000
0.986315 0.000000 0.000000
0.000000 0.103615 0.114782
0.087795 0.088133 0.086893
0.289820 0.063888 0.043218
0.487187 0.012143 0.000000
0.735591 0.000000 0.000000
0.914545 0.000000 0.000000
0.986315 0.000000 0.000000
0.986315 0.000000 0.000000
0.986315 0.000000 0.000000
0.000000 0.254555 0.023477
0.000000 0.246830 0.000000
0.247356 0.234156 0.000000
0.465202 0.204161 0.000000
0.722274 0.114485 0.000000
0.911780 0.000000 0.000000
0.986315 0.000000 0.000000
0.986315 0.000000 0.000000
0.986315 0.000000 0.000000
0.000000 0.416907 0.000000
0.000000 0.412561 0.000000
0.105705 0.405647 0.000000
0.413681 0.390414 0.000000
0.692832 0.355327 0.000000
0.905634 0.262377 0.000000
0.986315 0.000000 0.000000
0.986315 0.000000 0.000000
0.986315 0.000000 0.000000
0.000000 0.625286 0.000000
0.000000 0.622592 0.000000
0.000000 0.618346 0.000000
0.265768 0.609165 0.000000
0.624377 0.588987 0.000000
0.891233 0.542901 0.000000
0.986315 0.424648 0.000000
0.986315 0.000000 0.000000
0.986315 0.000000 0.000000
0.000000 0.851791 0.000000
0.000000 0.850976 0.000000
0.000000 0.849687 0.000000
0.000000 0.846885 0.000000
0.435771 0.840651 0.000000
0.852218 0.826021 0.000000
0.986315 0.786210 0.000000
0.986315 0.634456 0.000000
0.986315 0.388463 0.000000
0.000000 0.976778 0.000000
0.000000 0.976517 0.000000
0.000000 0.976106 0.000000
0.000000 0.975223 0.000000
0.000000 0.973314 0.000000
0.653612 0.969121 0.000000
0.977398 0.959592 0.000000
0.986315 0.935975 0.000000
0.986315 0.904445 0.000000
0.000000 0.986315 0.000000
0.000000 0.986315 0.000000
0.000000 0.986315 0.000000
0.000000 0.986315 0.000000
0.000000 0.986315 0.000000
0.000000 0.986315 0.000000
0.869993 0.986315 0.000000
0.986315 0.986315 0.000000
0.986315 0.986315 0.000000
0.000000 0.986315 0.000000
0.000000 0.986315 0.000000
0.000000 0.986315 0.000000
0.000000 0.986315 0.000000
0.000000 0.986315 0.000000
0.000000 0.986315 0.000000
0.000000 0.986315 0.000000
0.986315 0.986315 0.000000
0.986315 0.986315 0.000000
0.000000 0.000000 0.323171
0.103551 0.000000 0.312537
0.296409 0.000000 0.294999
0.490838 0.000000 0.252923
0.737844 0.000000 0.114060
0.915012 0.000000 0.000000
0.986315 0.000000 0.000000
0.986315 0.000000 0.000000
0.986315 0.000000 0.000000
0.000000 0.086764 0.300447
0.044807 0.071282 0.288853
0.270913 0.047037 0.269553
0.477061 0.000000 0.222015
0.729404 0.000000 0.055756
0.913262 0.000000 0.000000
0.986315 0.000000 0.000000
0.986315 0.000000 0.000000
0.986315 0.000000 0.000000
0.000000 0.246134 0.260297
0.000000 0.238101 0.246549
0.224394 0.224876 0.223104
0.454502 0.193276 0.160575
0.715950 0.097634 0.000000
0.910463 0.000000 0.000000
0.986315 0.000000 0.000000
0.986315 0.000000 0.000000
0.986315 0.000000 0.000000
0.000000 0.412174 0.133678
0.000000 0.407770 0.105583
0.062718 0.400760 0.061908
0.401367 0.385302 0.000000
0.686185 0.349619 0.000000
0.904241 0.254248 0.000000
0.986315 0.000000 0.000000
0.986315 0.000000 0.000000
0.986315 0.000000 0.000000
0.000000 0.622353 0.000000
0.000000 0.619644 0.000000
0.000000 0.615374 0.000000
0.244751 0.606140 0.000000
0.616849 0.585838 0.000000
0.889645 0.539434 0.000000
0.986315 0.420016 0.000000
0.986315 0.000000 0.000000
0.986315 0.000000 0.000000
0.000000 0.850903 0.000000
0.000000 0.850082 0.000000
0.000000 0.848782 0.000000
0.000000 0.845957 0.000000
0.424200 0.839669 0.000000
0.849949 0.824899 0.000000
0.986315 0.784596 0.000000
0.986315 0.631574 0.000000
0.986315 0.383321 0.000000
0.000000 0.976494 0.000000
0.000000 0.976231 0.000000
0.000000 0.975819 0.000000
0.000000 0.974934 0.000000
0.000000 0.973019 0.000000
0.646486 0.968815 0.000000
0.976673 0.959259 0.000000
0.986315 0.935562 0.000000
0.986315 0.903896 0.000000
0.000000 0.986315 0.000000
0.000000 0.986315 0.000000
0.000000 0.986315 0.000000
0.000000 0.986315 0.000000
0.000000 0.986315 0.000000
0.000000 0.986315 0.000000
0.868064 0.986315 0.000000
0.986315 0.986315 0.000000
0.986315 0.986315 0.000000
0.000000 0.986315 0.000000
0.000000 0.986315 0.000000
0.000000 0.986315 0.000000
0.000000 0.986315 0.000000
0.000000 0.986315 0.000000
0.000000 0.986315 0.000000
0.000000 0.986315 0.000000
0.986315 0.986315 0.000000
0.986315 0.986315 0.000000
0.000000 0.000000 0.505623
0.011804 0.000000 0.499363
0.255318 0.000000 0.489373
0.469113 0.000000 0.467210
0.724612 0.000000 0.415204
0.912266 0.000000 0.265531
0.986315 0.000000 0.000000
0.986315 0.000000 0.000000
0.986315 0.000000 0.000000
0.000000 0.050799 0.492431
0.000000 0.035317 0.485972
0.224533 0.011072 0.475651
0.454564 0.000000 0.452700
0.715987 0.000000 0.398469
0.910471 0.000000 0.236483
0.986315 0.000000 0.000000
0.986315 0.000000 0.000000
0.986315 0.000000 0.000000
0.000000 0.226984 0.470900
0.000000 0.218161 0.464089
0.163594 0.203489 0.453184
0.430621 0.167449 0.428821
0.702227 0.061669 0.370493
0.907599 0.000000 0.180591
0.986315 0.000000 0.000000
0.986315 0.000000 0.000000
0.986315 0.000000 0.000000
0.000000 0.401857 0.420605
0.000000 0.397319 0.412820
0.000000 0.390091 0.400273
0.373503 0.374122 0.371847
0.671737 0.337065 0.300691
0.901209 0.235838 0.000000
0.986315 0.000000 0.000000
0.986315 0.000000 0.000000
0.986315 0.000000 0.000000
0.000000 0.616039 0.278491
0.000000 0.613296 0.265805
0.000000 0.608973 0.244438
0.191279 0.599623 0.189874
0.600409 0.579051 0.003993
0.886177 0.531946 0.000000
0.986315 0.409928 0.000000
0.986315 0.000000 0.000000
0.986315 0.000000 0.000000
0.000000 0.848985 0.000000
0.000000 0.848149 0.000000
0.000000 0.846827 0.000000
0.000000 0.843950 0.000000
0.398191 0.837543 0.000000
0.844943 0.822465 0.000000
0.986315 0.781070 0.000000
0.986315 0.625369 0.000000
0.986315 0.372072 0.000000
0.000000 0.975883 0.000000
0.000000 0.975619 0.000000
0.000000 0.975205 0.000000
0.000000 0.974315 0.000000
0.000000 0.972389 0.000000
0.630956 0.968160 0.000000
0.975112 0.958545 0.000000
0.986315 0.934676 0.000000
0.986315 0.902713 0.000000
0.000000 0.986315 0.000000
0.000000 0.986315 0.000000
0.000000 0.986315 0.000000
0.000000 0.986315 0.000000
0.000000 0.986315 0.000000
0.000000 0.986315 0.000000
0.863832 0.986315 0.000000
0.986315 0.986315 0.000000
0.986315 0.986315 0.000000
0.000000 0.986315 0.000000
0.000000 0.986315 0.000000
0.000000 0.986315 0.000000
0.000000 0.986315 0.000000
0.000000 0.986315 0.000000
0.000000 0.986315 0.000000
0.000000 0.986315 0.000000
0.986315 0.986315 0.000000
0.986315 0.986315 0.000000
0.000000 0.000000 0.746199
0.000000 0.000000 0.742260
0.122068 0.000000 0.736041
0.418258 0.000000 0.722556
0.695342 0.000000 0.692701
0.906159 0.000000 0.623196
0.986315 0.000000 0.430583
0.986315 0.000000 0.000000
0.986315 0.000000 0.000000
0.000000 0.000000 0.737936
0.000000 0.000000 0.733944
0.063325 0.000000 0.727641
0.401544 0.000000 0.713966
0.686279 0.000000 0.683665
0.904261 0.000000 0.612937
0.986315 0.000000 0.414569
0.986315 0.000000 0.000000
0.986315 0.000000 0.000000
0.000000 0.178460 0.724771
0.000000 0.166800 0.720692
0.000000 0.146529 0.714250
0.373617 0.095377 0.700264
0.671795 0.000000 0.669224
0.901221 0.000000 0.596451
0.986315 0.000000 0.387941
0.986315 0.000000 0.000000
0.986315 0.000000 0.000000
0.000000 0.378722 0.695678
0.000000 0.373858 0.691396
0.000000 0.366092 0.684625
0.304062 0.348847 0.669903
0.639576 0.308271 0.637100
0.894439 0.189852 0.559337
0.986315 0.000000 0.322549
0.986315 0.000000 0.000000
0.986315 0.000000 0.000000
0.000000 0.602287 0.628135
0.000000 0.599471 0.623299
0.000000 0.595029 0.615634
0.009207 0.585415 0.598887
0.563386 0.564231 0.561127
0.878382 0.515521 0.468357
0.986315 0.387352 0.060035
0.986315 0.000000 0.000000
0.986315 0.000000 0.000000
0.000000 0.844772 0.443222
0.000000 0.843903 0.435905
0.000000 0.842529 0.424150
0.000000 0.839536 0.397705
0.334738 0.832859 0.333013
0.833424 0.817078 0.079395
0.986315 0.773140 0.000000
0.986315 0.611865 0.000000
0.986315 0.346624 0.000000
0.000000 0.974567 0.000000
0.000000 0.974300 0.000000
0.000000 0.973881 0.000000
0.000000 0.972980 0.000000
0.000000 0.971031 0.000000
0.596174 0.966749 0.000000
0.971700 0.957003 0.000000
0.986315 0.932759 0.000000
0.986315 0.900144 0.000000
0.000000 0.986315 0.000000
0.000000 0.986315 0.000000
0.000000 0.986315 0.000000
0.000000 0.986315 0.000000
0.000000 0.986315 0.000000
0.000000 0.986315 0.000000
0.854208 0.986315 0.000000
0.986315 0.986315 0.000000
0.986315 0.986315 0.000000
0.000000 0.986315 0.000000
0.000000 0.986315 0.000000
0.000000 0.986315 0.000000
0.000000 0.986315 0.000000
0.000000 0.986315 0.000000
0.000000 0.986315 0.000000
0.000000 0.986315 0.000000
0.986315 0.986315 0.000000
0.986315 0.986315 0.000000
0.000000 0.000000 0.916351
0.000000 0.000000 0.915533
0.000000 0.000000 0.914241
0.273642 0.000000 0.911430
0.627347 0.000000 0.905174
0.891860 0.000000 0.890491
0.986315 0.000000 0.850489
0.986315 0.000000 0.643659
0.986315 0.000000 0.000000
0.000000 0.000000 0.914635
0.000000 0.000000 0.913804
0.000000 0.000000 0.912491
0.245456 0.000000 0.909634
0.617092 0.000000 0.903273
0.889696 0.000000 0.888316
0.986315 0.000000 0.847350
0.986315 0.000000 0.633790
0.986315 0.000000 0.000000
0.000000 0.022750 0.911892
0.000000 0.007268 0.911041
0.000000 0.000000 0.909694
0.192040 0.000000 0.906763
0.600615 0.000000 0.900229
0.886220 0.000000 0.884822
0.986315 0.000000 0.842248
0.986315 0.000000 0.617960
0.986315 0.000000 0.000000
0.000000 0.322845 0.905800
0.000000 0.316985 0.904900
0.000000 0.307551 0.903476
0.009977 0.286224 0.900372
0.563537 0.233247 0.893436
0.878414 0.038974 0.876974
0.986315 0.000000 0.830498
0.986315 0.000000 0.582466
0.986315 0.000000 0.000000
0.000000 0.571599 0.891537
0.000000 0.568603 0.890512
0.000000 0.563873 0.888888
0.000000 0.553619 0.885339
0.472764 0.530933 0.877352
0.859619 0.478205 0.858066
0.986315 0.333161 0.800210
0.986315 0.000000 0.496533
0.986315 0.000000 0.000000
0.000000 0.835195 0.852999
0.000000 0.834247 0.851542
0.000000 0.832746 0.849222
0.000000 0.829472 0.844100
0.090879 0.822135 0.832291
0.803854 0.804607 0.801819
0.986315 0.754542 0.690412
0.986315 0.581775 0.187135
0.986315 0.283432 0.000000
0.000000 0.971703 0.658418
0.000000 0.971429 0.653845
0.000000 0.970999 0.646607
0.000000 0.970074 0.630829
0.000000 0.968072 0.595462
0.512458 0.963671 0.510132
0.964037 0.953637 0.213602
0.986315 0.928549 0.000000
0.986315 0.894448 0.000000
0.000000 0.986315 0.000000
0.000000 0.986315 0.000000
0.000000 0.986315 0.000000
0.000000 0.986315 0.000000
0.000000 0.986315 0.000000
0.000000 0.986315 0.000000
0.830315 0.986315 0.000000
0.986315 0.986315 0.000000
0.986315 0.986315 0.000000
0.000000 0.986315 0.000000
0.000000 0.986315 0.000000
0.000000 0.986315 0.000000
0.000000 0.986315 0.000000
0.000000 0.986315 0.000000
0.000000 0.986315 0.000000
0.000000 0.986315 0.000000
0.986315 0.986315 0.000000
0.986315 0.986315 0.000000
0.000000 0.000000 0.986315
0.000000 0.000000 0.986315
0.000000 0.000000 0.986315
0.000000 0.000000 0.986315
0.440715 0.000000 0.986315
0.853195 0.000000 0.986315
0.986315 0.000000 0.986315
0.986315 0.000000 0.975902
0.986315 0.000000 0.934680
0.000000 0.000000 0.986315
0.000000 0.000000 0.986315
0.000000 0.000000 0.986315
0.000000 0.000000 0.986315
0.425026 0.000000 0.986315
0.850110 0.000000 0.986315
0.986315 0.000000 0.986315
0.986315 0.000000 0.974905
0.986315 0.000000 0.933228
0.000000 0.000000 0.986315
0.000000 0.000000 0.986315
0.000000 0.000000 0.986315
0.000000 0.000000 0.986315
0.399007 0.000000 0.986315
0.845098 0.000000 0.986315
0.986315 0.000000 0.986315
0.986315 0.000000 0.973325
0.986315 0.000000 0.930915
0.000000 0.126552 0.986315
0.000000 0.111070 0.986315
0.000000 0.086825 0.986315
0.000000 0.035080 0.986315
0.335605 0.000000 0.986315
0.833573 0.000000 0.986315
0.986315 0.000000 0.986315
0.986315 0.000000 0.969876
0.986315 0.000000 0.925811
0.000000 0.498526 0.986315
0.000000 0.495005 0.986315
0.000000 0.489430 0.986315
0.000000 0.477277 0.986315
0.092525 0.450027 0.986315
0.803987 0.384209 0.986315
0.986315 0.153085 0.986315
0.986315 0.000000 0.962127
0.986315 0.000000 0.914047
0.000000 0.811438 0.986315
0.000000 0.810261 0.986315
0.000000 0.808392 0.986315
0.000000 0.804293 0.986315
0.000000 0.794993 0.986315
0.696430 0.772032 0.986315
0.981842 0.703822 0.980743
0.986315 0.510431 0.943490
0.986315 0.028619 0.883713
0.000000 0.965324 0.977409
0.000000 0.965034 0.976940
0.000000 0.964578 0.976201
0.000000 0.963597 0.974607
0.000000 0.961473 0.971124
0.227911 0.956795 0.963292
0.945635 0.946083 0.944430
0.986315 0.918979 0.888379
0.986315 0.881194 0.760449
0.000000 0.986315 0.871374
0.000000 0.986315 0.870142
0.000000 0.986315 0.868185
0.000000 0.986315 0.863889
0.000000 0.986315 0.854109
0.000000 0.986315 0.829764
0.750351 0.986315 0.747135
0.986315 0.986315 0.360546
0.986315 0.986315 0.000000
0.000000 0.986315 0.000000
0.000000 0.986315 0.000000
0.000000 0.986315 0.000000
0.000000 0.986315 0.000000
0.000000 0.986315 0.000000
0.000000 0.986315 0.000000
0.000000 0.986315 0.000000
0.986315 0.986315 0.000000
0.986315 0.986315 0.000000
0.000000 0.000000 0.986315
0.000000 0.000000 0.986315
0.000000 0.000000 0.986315
0.000000 0.000000 0.986315
0.000000 0.000000 0.986315
0.657273 0.000000 0.986315
0.977771 0.000000 0.986315
0.986315 0.000000 0.986315
0.986315 0.000000 0.986315
0.000000 0.000000 0.986315
0.000000 0.000000 0.986315
0.000000 0.000000 0.986315
0.000000 0.000000 0.986315
0.000000 0.000000 0.986315
0.647576 0.000000 0.986315
0.976784 0.000000 0.986315
0.986315 0.000000 0.986315
0.986315 0.000000 0.986315
0.000000 0.000000 0.986315
0.000000 0.000000 0.986315
0.000000 0.000000 0.986315
0.000000 0.000000 0.986315
0.000000 0.000000 0.986315
0.632036 0.000000 0.986315
0.975220 0.000000 0.986315
0.986315 0.000000 0.986315
0.986315 0.000000 0.986315
0.000000 0.000000 0.986315
0.000000 0.000000 0.986315
0.000000 0.000000 0.986315
0.000000 0.000000 0.986315
0.000000 0.000000 0.986315
0.597262 0.000000 0.986315
0.971805 0.000000 0.986315
0.986315 0.000000 0.986315
0.986315 0.000000 0.986315
0.000000 0.269644 0.986315
0.000000 0.262419 0.986315
0.000000 0.250630 0.986315
0.000000 0.223121 0.986315
0.000000 0.145769 0.986315
0.513588 0.000000 0.986315
0.964135 0.000000 0.986315
0.986315 0.000000 0.986315
0.986315 0.000000 0.986315
0.000000 0.732362 0.986315
0.000000 0.730129 0.986315
0.000000 0.726616 0.986315
0.000000 0.719051 0.986315
0.000000 0.702565 0.986315
0.229853 0.665720 0.986315
0.945713 0.577601 0.986315
0.986315 0.292992 0.986315
0.986315 0.000000 0.986315
0.000000 0.950321 0.986315
0.000000 0.949988 0.986315
0.000000 0.949465 0.986315
0.000000 0.948340 0.986315
0.000000 0.945897 0.986315
0.000000 0.940492 0.986315
0.891498 0.927972 0.986315
0.986315 0.895244 0.986315
0.986315 0.846067 0.986315
0.000000 0.986315 0.986315
0.000000 0.986315 0.986315
0.000000 0.986315 0.986315
0.000000 0.986315 0.986315
0.000000 0.986315 0.986315
0.000000 0.986315 0.986315
0.377727 0.986315 0.986315
0.986315 0.986315 0.986315
0.986315 0.986315 0.986315
0.000000 0.986315 0.986315
0.000000 0.986315 0.986315
0.000000 0.986315 0.986315
0.000000 0.986315 0.986315
0.000000 0.986315 0.986315
0.000000 0.986315 0.986315
0.000000 0.986315 0.986315
0.986315 0.986315 0.986315
0.986315 0.986315 0.970587
0.000000 0.000000 0.986315
0.000000 0.000000 0.986315
0.000000 0.000000 0.986315
0.000000 0.000000 0.986315
0.000000 0.000000 0.986315
0.000000 0.000000 0.986315
0.938152 0.000000 0.986315
0.986315 0.000000 0.986315
0.986315 0.000000 0.986315
0.000000 0.000000 0.986315
0.000000 0.000000 0.986315
0.000000 0.000000 0.986315
0.000000 0.000000 0.986315
0.000000 0.000000 0.986315
0.000000 0.000000 0.986315
0.936735 0.000000 0.986315
0.986315 0.000000 0.986315
0.986315 0.000000 0.986315
0.000000 0.000000 0.986315
0.000000 0.000000 0.986315
0.000000 0.000000 0.986315
0.000000 0.000000 0.986315
0.000000 0.000000 0.986315
0.000000 0.000000 0.986315
0.934479 0.000000 0.986315
0.986315 0.000000 0.986315
0.986315 0.000000 0.986315
0.000000 0.000000 0.986315
0.000000 0.000000 0.986315
0.000000 0.000000 0.986315
0.000000 0.000000 0.986315
0.000000 0.000000 0.986315
0.000000 0.000000 0.986315
0.929502 0.000000 0.986315
0.986315 0.000000 0.986315
0.986315 0.000000 0.986315
0.000000 0.000000 0.986315
0.000000 0.000000 0.986315
0.000000 0.000000 0.986315
0.000000 0.000000 0.986315
0.000000 0.000000 0.986315
0.000000 0.000000 0.986315
0.918056 0.000000 0.986315
0.986315 0.000000 0.986315
0.986315 0.000000 0.986315
0.000000 0.607703 0.986315
0.000000 0.604916 0.986315
0.000000 0.600521 0.986315
0.000000 0.591013 0.986315
0.000000 0.570074 0.986315
0.000000 0.522009 0.986315
0.888710 0.396348 0.986315
0.986315 0.000000 0.986315
0.986315 0.000000 0.986315
0.000000 0.932171 0.986315
0.000000 0.931779 0.986315
0.000000 0.931162 0.986315
0.000000 0.929832 0.986315
0.000000 0.926937 0.986315
0.000000 0.920487 0.986315
0.772549 0.905299 0.986315
0.986315 0.863510 0.986315
0.986315 0.791451 0.986315
0.000000 0.986315 0.986315
0.000000 0.986315 0.986315
0.000000 0.986315 0.986315
0.000000 0.986315 0.986315
0.000000 0.986315 0.986315
0.000000 0.986315 0.986315
0.000000 0.986315 0.986315
0.986315 0.986315 0.986315
0.986315 0.986315 0.986315
0.000000 0.986315 0.986315
0.000000 0.986315 0.986315
0.000000 0.986315 0.986315
0.000000 0.986315 0.986315
0.000000 0.986315 0.986315
0.000000 0.986315 0.986315
0.000000 0.986315 0.986315
0.972615 0.986315 0.986315
0.986315 0.986315 0.986315
