luts/BlackMagic/BMD_PC_EE_FILM_V1.cube
# Blackmagic Production Camera 4K Film to Rec709 v1. CD_v6
# DaVinci Resolve Cube (3D LUT).
LUT_3D_SIZE 9
0.000000 0.000000 0.000000
0.172250 0.000000 0.000000
0.340901 0.000000 0.000000
0.496523 0.000000 0.000000
0.667598 0.000000 0.000000
0.831383 0.000000 0.000000
0.925769 0.000000 0.000000
0.996090 0.000000 0.000000
0.996090 0.000000 0.000000
0.000000 0.122505 0.000000
0.149784 0.113566 0.000000
0.330996 0.098222 0.000000
0.490177 0.073494 0.000000
0.663134 0.033559 0.000000
0.829622 0.000000 0.000000
0.925024 0.000000 0.000000
0.996090 0.000000 0.000000
0.996090 0.000000 0.000000
0.000000 0.281545 0.000000
0.103287 0.277600 0.000000
0.313154 0.270677 0.000000
0.479054 0.259080 0.000000
0.655389 0.239006 0.000000
0.826533 0.201863 0.000000
0.923734 0.117208 0.000000
0.996090 0.000000 0.000000
0.996090 0.000000 0.000000
0.000000 0.419850 0.000000
0.026738 0.417367 0.000000
0.281670 0.413066 0.000000
0.460467 0.406023 0.000000
0.642675 0.394339 0.000000
0.821365 0.374575 0.000000
0.921623 0.339833 0.000000
0.996079 0.272971 0.000000
0.996090 0.083873 0.000000
0.000000 0.569765 0.000000
0.000000 0.568030 0.000000
0.220065 0.565039 0.000000
0.428449 0.560178 0.000000
0.621489 0.552222 0.000000
0.812470 0.539079 0.000000
0.918125 0.517022 0.000000
0.994313 0.478864 0.000000
0.996090 0.408355 0.000000
0.000000 0.743391 0.000000
0.000000 0.742126 0.000000
0.051809 0.739947 0.000000
0.369875 0.736421 0.000000
0.585349 0.730683 0.000000
0.796394 0.721301 0.000000
0.912232 0.705837 0.000000
0.991398 0.679976 0.000000
0.996090 0.635559 0.000000
0.000000 0.870868 0.000000
0.000000 0.870473 0.000000
0.000000 0.869792 0.000000
0.241546 0.868684 0.000000
0.520677 0.866872 0.000000
0.766039 0.863882 0.000000
0.901993 0.858873 0.000000
0.986523 0.850271 0.000000
0.996090 0.834783 0.000000
0.000000 0.953039 0.000000
0.000000 0.952851 0.000000
0.000000 0.952529 0.000000
0.000000 0.952007 0.000000
0.389579 0.951160 0.000000
0.690580 0.949777 0.000000
0.883143 0.947507 0.000000
0.978163 0.943739 0.000000
0.996090 0.937368 0.000000
0.000000 0.996090 0.000000
0.000000 0.996090 0.000000
0.000000 0.996090 0.000000
0.000000 0.996090 0.000000
0.000000 0.996090 0.000000
0.542194 0.996090 0.000000
0.843643 0.996090 0.000000
0.963162 0.996090 0.000000
0.996090 0.996090 0.000000
0.000000 0.000000 0.165310
0.126899 0.000000 0.154113
0.322164 0.000000 0.132544
0.484620 0.000000 0.094514
0.659253 0.000000 0.033438
0.828079 0.000000 0.000000
0.924377 0.000000 0.000000
0.996090 0.000000 0.000000
0.996090 0.000000 0.000000
0.000000 0.108257 0.111286
0.099226 0.099318 0.097614
0.311574 0.083973 0.074147
0.478090 0.059246 0.036329
0.654722 0.019310 0.000000
0.826265 0.000000 0.000000
0.923623 0.000000 0.000000
0.996090 0.000000 0.000000
0.996090 0.000000 0.000000
0.000000 0.275227 0.011407
0.051723 0.271178 0.000000
0.292371 0.264065 0.000000
0.466629 0.252124 0.000000
0.646857 0.231370 0.000000
0.823078 0.192582 0.000000
0.922316 0.102959 0.000000
0.996090 0.000000 0.000000
0.996090 0.000000 0.000000
0.000000 0.415885 0.000000
0.000000 0.413375 0.000000
0.257988 0.409025 0.000000
0.447437 0.401899 0.000000
0.633940 0.390072 0.000000
0.817742 0.370044 0.000000
0.920177 0.334756 0.000000
0.995346 0.266423 0.000000
0.996090 0.069624 0.000000
0.000000 0.566997 0.000000
0.000000 0.565253 0.000000
0.187690 0.562244 0.000000
0.414239 0.557355 0.000000
0.612396 0.549350 0.000000
0.808538 0.536125 0.000000
0.916633 0.513918 0.000000
0.993567 0.475466 0.000000
0.996090 0.404259 0.000000
0.000000 0.741373 0.000000
0.000000 0.740103 0.000000
0.000246 0.737918 0.000000
0.352905 0.734380 0.000000
0.575579 0.728623 0.000000
0.791831 0.719209 0.000000
0.910657 0.703690 0.000000
0.990633 0.677732 0.000000
0.996090 0.633127 0.000000
0.000000 0.870238 0.000000
0.000000 0.869840 0.000000
0.000000 0.869155 0.000000
0.212827 0.868041 0.000000
0.509435 0.866219 0.000000
0.758963 0.863210 0.000000
0.900264 0.858170 0.000000
0.985723 0.849511 0.000000
0.996090 0.833908 0.000000
0.000000 0.952740 0.000000
0.000000 0.952552 0.000000
0.000000 0.952229 0.000000
0.000000 0.951706 0.000000
0.373642 0.950856 0.000000
0.682567 0.949470 0.000000
0.881089 0.947193 0.000000
0.977300 0.943414 0.000000
0.996090 0.937023 0.000000
0.000000 0.996090 0.000000
0.000000 0.996090 0.000000
0.000000 0.996090 0.000000
0.000000 0.996090 0.000000
0.000000 0.996090 0.000000
0.531484 0.996090 0.000000
0.840692 0.996090 0.000000
0.962173 0.996090 0.000000
0.996090 0.996090 0.000000
0.000000 0.000000 0.332176
0.038387 0.000000 0.327176
0.286715 0.000000 0.318383
0.463352 0.000000 0.303599
0.644629 0.000000 0.277818
0.822167 0.000000 0.229234
0.921947 0.000000 0.108421
0.996090 0.000000 0.000000
0.996090 0.000000 0.000000
0.000000 0.083798 0.310255
0.010714 0.074859 0.304842
0.274557 0.059514 0.295286
0.456464 0.034787 0.279100
0.639976 0.000000 0.250445
0.820252 0.000000 0.194192
0.921176 0.000000 0.050236
0.995852 0.000000 0.000000
0.996090 0.000000 0.000000
0.000000 0.263982 0.267825
0.000000 0.259735 0.261405
0.252133 0.252257 0.249952
0.444350 0.239652 0.230143
0.631893 0.217562 0.193369
0.816884 0.175392 0.109664
0.919839 0.078500 0.000000
0.995175 0.000000 0.000000
0.996090 0.000000 0.000000
0.000000 0.408975 0.175924
0.000000 0.406415 0.165502
0.210336 0.401978 0.145740
0.423976 0.394705 0.108429
0.618606 0.382620 0.047352
0.811231 0.362112 0.000000
0.917652 0.325830 0.000000
0.994075 0.254738 0.000000
0.996090 0.045165 0.000000
0.000000 0.562209 0.000000
0.000000 0.560447 0.000000
0.111398 0.557408 0.000000
0.388430 0.552468 0.000000
0.596406 0.544379 0.000000
0.801442 0.531008 0.000000
0.914024 0.508538 0.000000
0.992276 0.469568 0.000000
0.996090 0.397114 0.000000
0.000000 0.737893 0.000000
0.000000 0.736616 0.000000
0.000000 0.734418 0.000000
0.321355 0.730860 0.000000
0.558338 0.725070 0.000000
0.783529 0.715601 0.000000
0.907901 0.699987 0.000000
0.989307 0.673859 0.000000
0.996090 0.628927 0.000000
0.000000 0.869147 0.000000
0.000000 0.868746 0.000000
0.000000 0.868053 0.000000
0.149659 0.866929 0.000000
0.489427 0.865087 0.000000
0.746631 0.862047 0.000000
0.897232 0.856952 0.000000
0.984336 0.848193 0.000000
0.996090 0.832389 0.000000
0.000000 0.952225 0.000000
0.000000 0.952036 0.000000
0.000000 0.951712 0.000000
0.000000 0.951186 0.000000
0.344286 0.950332 0.000000
0.668546 0.948939 0.000000
0.877471 0.946652 0.000000
0.975803 0.942854 0.000000
0.996090 0.936430 0.000000
0.000000 0.996090 0.000000
0.000000 0.996090 0.000000
0.000000 0.996090 0.000000
0.000000 0.996090 0.000000
0.000000 0.996090 0.000000
0.512485 0.996090 0.000000
0.835434 0.996090 0.000000
0.960453 0.996090 0.000000
0.996090 0.996090 0.000000
0.000000 0.000000 0.485151
0.000000 0.000000 0.481941
0.215774 0.000000 0.476373
0.426455 0.000000 0.467237
0.620201 0.000000 0.452025
0.811918 0.000000 0.426112
0.917914 0.000000 0.379889
0.994206 0.000000 0.287096
0.996090 0.000000 0.000000
0.000000 0.044383 0.471314
0.000000 0.035444 0.467994
0.198706 0.020100 0.462229
0.418856 0.000000 0.452758
0.615329 0.000000 0.436956
0.809814 0.000000 0.409929
0.917114 0.000000 0.361286
0.993807 0.000000 0.260829
0.996090 0.000000 0.000000
0.000000 0.244630 0.446389
0.000000 0.239996 0.442849
0.164892 0.231800 0.436696
0.405425 0.217866 0.426561
0.606858 0.192998 0.409576
0.806107 0.143008 0.380274
0.915727 0.039086 0.326486
0.993117 0.000000 0.206999
0.996090 0.000000 0.000000
0.000000 0.397545 0.402407
0.000000 0.394900 0.398410
0.092393 0.390310 0.391438
0.382625 0.382780 0.379891
0.592905 0.370243 0.360335
0.799857 0.348893 0.325877
0.913455 0.310827 0.259131
0.991997 0.234525 0.068625
0.996090 0.005751 0.000000
0.000000 0.554391 0.316353
0.000000 0.552600 0.311062
0.000000 0.549510 0.301730
0.342065 0.544485 0.285960
0.569517 0.536255 0.258170
0.788949 0.522639 0.204324
0.909685 0.499726 0.065969
0.990163 0.459876 0.000000
0.996090 0.385276 0.000000
0.000000 0.732244 0.040133
0.000000 0.730955 0.026462
0.000000 0.728737 0.002994
0.261316 0.725146 0.000000
0.529155 0.719301 0.000000
0.771442 0.709741 0.000000
0.903308 0.693969 0.000000
0.987136 0.667562 0.000000
0.996090 0.622089 0.000000
0.000000 0.867366 0.000000
0.000000 0.866959 0.000000
0.000000 0.866255 0.000000
0.008013 0.865111 0.000000
0.455005 0.863239 0.000000
0.726232 0.860147 0.000000
0.892162 0.854962 0.000000
0.982064 0.846036 0.000000
0.996090 0.829896 0.000000
0.000000 0.951390 0.000000
0.000000 0.951200 0.000000
0.000000 0.950873 0.000000
0.000000 0.950343 0.000000
0.289748 0.949483 0.000000
0.645190 0.948079 0.000000
0.871378 0.945773 0.000000
0.973345 0.941945 0.000000
0.996090 0.935466 0.000000
0.000000 0.996090 0.000000
0.000000 0.996090 0.000000
0.000000 0.996090 0.000000
0.000000 0.996090 0.000000
0.000000 0.996090 0.000000
0.480003 0.996090 0.000000
0.826396 0.996090 0.000000
0.957624 0.996090 0.000000
0.996090 0.996090 0.000000
0.000000 0.000000 0.653038
0.000000 0.000000 0.650779
0.013758 0.000000 0.646879
0.357441 0.000000 0.640537
0.578158 0.000000 0.630134
0.793045 0.000000 0.612890
0.911072 0.000000 0.583765
0.990834 0.000000 0.532731
0.996090 0.000000 0.435341
0.000000 0.000000 0.643359
0.000000 0.000000 0.641060
0.000000 0.000000 0.637090
0.348077 0.000000 0.630631
0.572862 0.000000 0.620031
0.790544 0.000000 0.602445
0.910221 0.000000 0.572690
0.990422 0.000000 0.520368
0.996090 0.000000 0.419572
0.000000 0.209125 0.626331
0.000000 0.203586 0.623957
0.000000 0.193668 0.619858
0.331290 0.176398 0.613184
0.563633 0.143781 0.602220
0.786114 0.079595 0.583999
0.908744 0.000000 0.553069
0.989711 0.000000 0.498305
0.996090 0.000000 0.390769
0.000000 0.378238 0.597679
0.000000 0.375435 0.595170
0.000000 0.370565 0.590834
0.301973 0.362559 0.583766
0.548376 0.349181 0.572135
0.778579 0.326236 0.552739
0.906322 0.284678 0.519604
0.988555 0.196984 0.460124
0.996090 0.000000 0.338337
0.000000 0.541484 0.547640
0.000000 0.539643 0.544857
0.000000 0.536464 0.540042
0.246208 0.531295 0.532175
0.522624 0.522819 0.519173
0.767275 0.508780 0.497329
0.902295 0.485097 0.459463
0.986663 0.443700 0.389151
0.996090 0.365215 0.224719
0.000000 0.723009 0.452972
0.000000 0.721701 0.449493
0.000000 0.719449 0.443446
0.100118 0.715802 0.433496
0.477564 0.709866 0.416839
0.739481 0.700153 0.388176
0.895462 0.684119 0.335860
0.983537 0.657241 0.222285
0.996090 0.610854 0.000000
0.000000 0.864429 0.206391
0.000000 0.864010 0.197720
0.000000 0.863287 0.181773
0.000000 0.862112 0.152260
0.391901 0.860188 0.092560
0.691771 0.857007 0.000000
0.883448 0.851669 0.000000
0.978292 0.842461 0.000000
0.996090 0.825746 0.000000
0.000000 0.950029 0.000000
0.000000 0.949836 0.000000
0.000000 0.949505 0.000000
0.000000 0.948969 0.000000
0.160528 0.948098 0.000000
0.605201 0.946676 0.000000
0.860767 0.944340 0.000000
0.969258 0.940461 0.000000
0.996090 0.933891 0.000000
0.000000 0.996090 0.000000
0.000000 0.996090 0.000000
0.000000 0.996090 0.000000
0.000000 0.996090 0.000000
0.000000 0.996090 0.000000
0.421303 0.996090 0.000000
0.810027 0.996090 0.000000
0.952896 0.996090 0.000000
0.996090 0.996090 0.000000
0.000000 0.000000 0.821184
0.000000 0.000000 0.820233
0.000000 0.000000 0.818582
0.189869 0.000000 0.815868
0.501396 0.000000 0.811339
0.753968 0.000000 0.803608
0.899039 0.000000 0.789849
0.985160 0.000000 0.764929
0.996090 0.000000 0.705385
0.000000 0.000000 0.817080
0.000000 0.000000 0.816093
0.000000 0.000000 0.814378
0.169941 0.000000 0.811558
0.495124 0.000000 0.806844
0.750107 0.000000 0.798779
0.898089 0.000000 0.784363
0.984726 0.000000 0.756925
0.996090 0.000000 0.696562
0.000000 0.130232 0.809659
0.000000 0.121293 0.808603
0.000000 0.105948 0.806767
0.127924 0.081221 0.803742
0.484134 0.041286 0.798674
0.743425 0.000000 0.789963
0.896439 0.000000 0.774257
0.983977 0.000000 0.742946
0.996090 0.000000 0.681101
0.000000 0.344398 0.796537
0.000000 0.341272 0.795348
0.000000 0.335829 0.793275
0.051375 0.326837 0.789850
0.465785 0.311686 0.784083
0.732504 0.285265 0.774083
0.893728 0.235474 0.756434
0.982760 0.110985 0.719737
0.996090 0.000000 0.655272
0.000000 0.519840 0.771368
0.000000 0.517908 0.769871
0.000000 0.514571 0.769720
0.000000 0.509140 0.764567
0.434225 0.500223 0.756158
0.714448 0.485414 0.742337
0.889203 0.460316 0.719347
0.980764 0.416020 0.680258
0.996090 0.329826 0.610808
0.000000 0.707792 0.715535
0.000000 0.706451 0.713509
0.000000 0.704141 0.710014
0.000000 0.700400 0.704340
0.376703 0.694307 0.695059
0.684085 0.684331 0.679751
0.881479 0.667846 0.654130
0.977463 0.640155 0.610042
0.996090 0.592175 0.529594
0.000000 0.859512 0.605240
0.000000 0.859074 0.602768
0.000000 0.858318 0.598497
0.000000 0.857089 0.591537
0.252472 0.855074 0.580089
0.631365 0.851740 0.561017
0.867735 0.846134 0.528494
0.971915 0.836430 0.470343
0.996090 0.818697 0.352756
0.000000 0.947794 0.343052
0.000000 0.947597 0.338236
0.000000 0.947259 0.329781
0.000000 0.946712 0.315607
0.000000 0.945823 0.291042
0.533068 0.944371 0.245446
0.841129 0.941986 0.139015
0.962318 0.938021 0.000000
0.996090 0.931300 0.000000
0.000000 0.996090 0.000000
0.000000 0.996090 0.000000
0.000000 0.996090 0.000000
0.000000 0.996090 0.000000
0.000000 0.996090 0.000000
0.298401 0.996090 0.000000
0.777054 0.996090 0.000000
0.944805 0.996090 0.000000
0.996090 0.996090 0.000000
0.000000 0.000000 0.918591
0.000000 0.000000 0.918199
0.000000 0.000000 0.917523
0.000000 0.000000 0.916425
0.334520 0.000000 0.914627
0.664101 0.000000 0.911661
0.876318 0.000000 0.906696
0.975331 0.000000 0.898172
0.996090 0.000000 0.882842
0.000000 0.000000 0.916913
0.000000 0.000000 0.916515
0.000000 0.000000 0.915828
0.000000 0.000000 0.914713
0.324391 0.000000 0.912887
0.659610 0.000000 0.909873
0.875149 0.000000 0.904825
0.974857 0.000000 0.896149
0.996090 0.000000 0.880514
0.000000 0.000000 0.913972
0.000000 0.000000 0.913563
0.000000 0.000000 0.912858
0.000000 0.000000 0.911711
0.306107 0.000000 0.909835
0.651815 0.000000 0.906735
0.873115 0.000000 0.901537
0.974037 0.000000 0.892588
0.996090 0.000000 0.876401
0.000000 0.279774 0.909060
0.000000 0.275801 0.908633
0.000000 0.268826 0.907895
0.000000 0.257134 0.906696
0.273694 0.236875 0.904731
0.639016 0.199286 0.901483
0.869755 0.113179 0.896025
0.972704 0.000000 0.886597
0.996090 0.000000 0.869431
0.000000 0.482461 0.900635
0.000000 0.480352 0.900173
0.000000 0.476706 0.899377
0.000000 0.470760 0.898081
0.209430 0.460968 0.895955
0.617682 0.444621 0.892433
0.864102 0.416633 0.886495
0.970517 0.366142 0.876175
0.996090 0.261045 0.857153
0.000000 0.682363 0.885502
0.000000 0.680962 0.884972
0.000000 0.678549 0.884057
0.000000 0.674639 0.882567
0.033873 0.668267 0.880116
0.581261 0.657822 0.876040
0.854314 0.640525 0.869121
0.966889 0.611363 0.856939
0.996090 0.560450 0.833888
0.000000 0.851077 0.855592
0.000000 0.850604 0.854897
0.000000 0.849788 0.853693
0.000000 0.848459 0.851726
0.000000 0.846279 0.848473
0.515981 0.842664 0.843008
0.836403 0.836563 0.833566
0.960766 0.825936 0.816372
0.996090 0.806264 0.781288
0.000000 0.944085 0.778446
0.000000 0.943882 0.777042
0.000000 0.943532 0.774591
0.000000 0.942967 0.770522
0.000000 0.942046 0.765405
0.382965 0.940544 0.751786
0.799438 0.938073 0.729150
0.950097 0.933962 0.690721
0.996090 0.926981 0.622663
0.000000 0.996090 0.481773
0.000000 0.996090 0.478538
0.000000 0.996090 0.472923
0.000000 0.996090 0.463707
0.000000 0.996090 0.448355
0.000000 0.996090 0.422179
0.696381 0.996090 0.375389
0.930337 0.996090 0.280861
0.996090 0.996090 0.000000
0.000000 0.000000 0.992087
0.000000 0.000000 0.991886
0.000000 0.000000 0.991539
0.000000 0.000000 0.990979
0.000000 0.000000 0.990069
0.476609 0.000000 0.988582
0.825449 0.000000 0.986139
0.957337 0.000000 0.982073
0.996090 0.000000 0.975174
0.000000 0.000000 0.991228
0.000000 0.000000 0.991026
0.000000 0.000000 0.990677
0.000000 0.000000 0.990112
0.000000 0.000000 0.989195
0.469947 0.000000 0.987696
0.823590 0.000000 0.985232
0.956778 0.000000 0.981133
0.996090 0.000000 0.974173
0.000000 0.000000 0.989739
0.000000 0.000000 0.989533
0.000000 0.000000 0.989180
0.000000 0.000000 0.988608
0.000000 0.000000 0.987677
0.458249 0.000000 0.986158
0.820324 0.000000 0.983659
0.955812 0.000000 0.979500
0.996090 0.000000 0.972432
0.000000 0.102635 0.987295
0.000000 0.093695 0.987085
0.000000 0.078351 0.986724
0.000000 0.053623 0.986139
0.000000 0.013688 0.985187
0.438627 0.000000 0.983633
0.814850 0.000000 0.981075
0.954238 0.000000 0.976816
0.996090 0.000000 0.969568
0.000000 0.413677 0.983231
0.000000 0.411151 0.983013
0.000000 0.406773 0.982638
0.000000 0.399602 0.982031
0.000000 0.387693 0.981043
0.404583 0.367514 0.979429
0.805390 0.331915 0.976771
0.951646 0.262729 0.972338
0.996090 0.061757 0.964780
0.000000 0.638744 0.976334
0.000000 0.637228 0.976102
0.000000 0.634618 0.975702
0.000000 0.630383 0.975055
0.000000 0.623473 0.974003
0.341220 0.612118 0.972281
0.788160 0.593236 0.969443
0.947328 0.561150 0.964699
0.996090 0.504208 0.956578
0.000000 0.835926 0.964194
0.000000 0.835383 0.963935
0.000000 0.834445 0.963489
0.000000 0.832917 0.962766
0.000000 0.830402 0.961589
0.191338 0.826217 0.959660
0.753424 0.819102 0.956473
0.939977 0.806545 0.951122
0.996090 0.782653 0.941891
0.000000 0.937820 0.941235
0.000000 0.937605 0.940916
0.000000 0.937235 0.940366
0.000000 0.936635 0.939474
0.000000 0.935661 0.938018
0.000000 0.934068 0.935625
0.676279 0.931446 0.931647
0.926959 0.927075 0.924904
0.996090 0.919629 0.913058
0.000000 0.996090 0.889617
0.000000 0.996090 0.889107
0.000000 0.996090 0.888226
0.000000 0.996090 0.886791
0.000000 0.996090 0.884434
0.000000 0.996090 0.880517
0.523006 0.996090 0.873881
0.902028 0.996090 0.862243
0.996090 0.996090 0.840389
0.000000 0.000000 0.996090
0.000000 0.000000 0.996090
0.000000 0.000000 0.996090
0.000000 0.000000 0.996090
0.000000 0.000000 0.996090
0.000000 0.000000 0.996090
0.635440 0.000000 0.996090
0.920149 0.000000 0.996090
0.996090 0.000000 0.996090
0.000000 0.000000 0.996090
0.000000 0.000000 0.996090
0.000000 0.000000 0.996090
0.000000 0.000000 0.996090
0.000000 0.000000 0.996090
0.000000 0.000000 0.996090
0.630707 0.000000 0.996090
0.919365 0.000000 0.996090
0.996090 0.000000 0.996090
0.000000 0.000000 0.996090
0.000000 0.000000 0.996090
0.000000 0.000000 0.996090
0.000000 0.000000 0.996090
0.000000 0.000000 0.996090
0.000000 0.000000 0.996090
0.622482 0.000000 0.996090
0.918007 0.000000 0.996090
0.996090 0.000000 0.996090
0.000000 0.000000 0.996090
0.000000 0.000000 0.996090
0.000000 0.000000 0.996090
0.000000 0.000000 0.996090
0.000000 0.000000 0.996090
0.000000 0.000000 0.996090
0.608952 0.000000 0.996090
0.915782 0.000000 0.996090
0.996090 0.000000 0.996090
0.000000 0.259278 0.996090
0.000000 0.254942 0.996090
0.000000 0.247300 0.996090
0.000000 0.234396 0.996090
0.000000 0.211692 0.996090
0.000000 0.167895 0.996090
0.586319 0.068608 0.996090
0.912091 0.000000 0.996090
0.996090 0.000000 0.996090
0.000000 0.559720 0.996090
0.000000 0.557949 0.996090
0.000000 0.554894 0.996090
0.000000 0.549927 0.996090
0.000000 0.541794 0.996090
0.000000 0.528346 0.996090
0.547420 0.505737 0.996090
0.905856 0.466491 0.996090
0.996090 0.393369 0.996090
0.000000 0.805971 0.996090
0.000000 0.805258 0.996090
0.000000 0.804024 0.996090
0.000000 0.802005 0.996090
0.000000 0.798665 0.996090
0.000000 0.793048 0.996090
0.476638 0.783324 0.996090
0.894978 0.767682 0.996090
0.996090 0.729576 0.996090
0.000000 0.926883 0.996090
0.000000 0.926646 0.996090
0.000000 0.926237 0.996090
0.000000 0.925574 0.996090
0.000000 0.924496 0.996090
0.000000 0.922732 0.996090
0.324714 0.919823 0.996090
0.874769 0.914956 0.996090
0.996090 0.906611 0.996090
0.000000 0.996090 0.996090
0.000000 0.996090 0.996090
0.000000 0.996090 0.996090
0.000000 0.996090 0.996090
0.000000 0.996090 0.996090
0.000000 0.996090 0.996090
0.000000 0.996090 0.996090
0.831455 0.996090 0.996090
0.996090 0.996090 0.996090
