luts/BlackMagic/BMD_PC_EE_FILM_V2.cube
# Blackmagic Production Camera 4K Film to Rec709 v2. CD_v6
# DaVinci Resolve Cube (3D LUT).
LUT_3D_SIZE 5
0.0000000000 0.0000000000 0.0000000000
0.3642075658 0.0000000000 0.0000000000
0.7107678652 0.0000000000 0.0000000000
0.9100628495 0.0000000000 0.0000000000
1.0000000000 0.0000000000 0.0000000000
0.0000000000 0.3263936937 0.0000000000
0.3348141611 0.3025680482 0.0000000000
0.6963329315 0.2398435771 0.0000000000
0.9082902074 0.0000000000 0.0000000000
1.0000000000 0.0000000000 0.0000000000
0.0000000000 0.6478799582 0.0000000000
0.2556812167 0.6362020373 0.0000000000
0.6618446112 0.6084361076 0.0000000000
0.9040572047 0.5378667712 0.0000000000
1.0000000000 0.3162805438 0.0000000000
0.0000000000 0.8879702091 0.0000000000
0.0000000000 0.8862581849 0.0000000000
0.5728934407 0.8821753263 0.0000000000
0.8932237029 0.8717626929 0.0000000000
0.9973534942 0.8404633999 0.0000000000
0.0000000000 0.9857563376 0.0000000000
0.0000000000 0.9852532148 0.0000000000
0.2661882937 0.9840836525 0.0000000000
0.8602536321 0.9812885523 0.0000000000
0.9895909429 0.9743666053 0.0000000000
0.0000000000 0.0000000000 0.3738609552
0.3003053665 0.0000000000 0.3686946630
0.6804844141 0.0000000000 0.3565360904
0.9063442349 0.0000000000 0.3265196979
1.0000000000 0.0000000000 0.2438227087
0.0000000000 0.2912661433 0.2693691254
0.2644728124 0.2645872235 0.2623234391
0.6653462648 0.1916375458 0.2454405427
0.9044865966 0.0000000000 0.2014982551
1.0000000000 0.0000000000 0.0438486785
0.0000000000 0.6308742762 0.0000000000
0.1586336195 0.6188567877 0.0000000000
0.6290480494 0.5902311206 0.0000000000
0.9000425935 0.5170779824 0.0000000000
0.9992774725 0.2799939513 0.0000000000
0.0000000000 0.8854759932 0.0000000000
0.0000000000 0.8837094307 0.0000000000
0.5343733430 0.8794914484 0.0000000000
0.8886126876 0.8687002659 0.0000000000
0.9961178899 0.8359001875 0.0000000000
0.0000000000 0.9850258827 0.0000000000
0.0000000000 0.9845181108 0.0000000000
0.1738907695 0.9833377004 0.0000000000
0.8531978726 0.9805160761 0.0000000000
0.9882289767 0.9735242724 0.0000000000
0.0000000000 0.0000000000 0.7266606092
0.0478709936 0.0000000000 0.7240589857
0.6046850085 0.0000000000 0.7180352211
0.8970732689 0.0000000000 0.7037742138
0.9984252453 0.0000000000 0.6692559123
0.0000000000 0.1903554350 0.6791427135
0.0000000000 0.1501132250 0.6763448119
0.5874772072 0.0152388616 0.6698607802
0.8949854970 0.0000000000 0.6544759274
0.9978393912 0.0000000000 0.6170209050
0.0000000000 0.5897859335 0.5534780025
0.0000000000 0.5768683553 0.5500044227
0.5457381606 0.5459411144 0.5419255495
0.8899658322 0.4656569660 0.5225869417
0.9964751601 0.1738181263 0.4743621647
0.0000000000 0.8794257641 0.0000000000
0.0000000000 0.8775193691 0.0000000000
0.4325702786 0.8729537725 0.0000000000
0.8768776059 0.8611775041 0.0000000000
0.9932011366 0.8242996931 0.0000000000
0.0000000000 0.9833196998 0.0000000000
0.0000000000 0.9828010201 0.0000000000
0.0000000000 0.9815949202 0.0000000000
0.8341399431 0.9787102938 0.0000000000
0.9850051999 0.9715523124 0.0000000000
0.0000000000 0.0000000000 0.9150694013
0.0000000000 0.0000000000 0.9147620201
0.3694314957 0.0000000000 0.9140503407
0.8700979352 0.0000000000 0.9123660922
0.9916579723 0.0000000000 0.9082959890
0.0000000000 0.0000000000 0.9094604254
0.0000000000 0.0000000000 0.9091307521
0.3404678702 0.0000000000 0.9083672166
0.8671618104 0.0000000000 0.9065580964
0.9910204411 0.0000000000 0.9021744728
0.0000000000 0.4798863828 0.8948429823
0.0000000000 0.4638221264 0.8944473863
0.2628810406 0.4245536625 0.8935298324
0.8599694371 0.3149842322 0.8913487792
0.9895342588 0.0000000000 0.8860206008
0.0000000000 0.8632490039 0.8445489407
0.0000000000 0.8609111309 0.8438075781
0.0000000000 0.8552595377 0.8420755267
0.8401756287 0.8402962089 0.8378857374
0.9859581590 0.7881685495 0.8271736503
0.0000000000 0.9791947603 0.1014105901
0.0000000000 0.9786486626 0.0860412046
0.0000000000 0.9773781300 0.0475420058
0.7546818852 0.9743350744 0.0000000000
0.9769440293 0.9667569399 0.0000000000
0.0000000000 0.0000000000 1.0000000000
0.0000000000 0.0000000000 1.0000000000
0.0000000000 0.0000000000 1.0000000000
0.6878994703 0.0000000000 1.0000000000
0.9732356071 0.0000000000 1.0000000000
0.0000000000 0.0000000000 1.0000000000
0.0000000000 0.0000000000 1.0000000000
0.0000000000 0.0000000000 1.0000000000
0.6729392409 0.0000000000 1.0000000000
0.9724329710 0.0000000000 1.0000000000
0.0000000000 0.0000000000 1.0000000000
0.0000000000 0.0000000000 1.0000000000
0.0000000000 0.0000000000 0.9999067187
0.6371007562 0.0000000000 0.9993321896
0.9705553055 0.0000000000 0.9979763031
0.0000000000 0.8042658567 0.9895038605
0.0000000000 0.7993152738 0.9893823266
0.0000000000 0.7866150737 0.9891019464
0.5438976884 0.7442744970 0.9884443283
0.9659988880 0.6058343053 0.9868897796
0.0000000000 0.9686645269 0.9568514228
0.0000000000 0.9680416584 0.9566688538
0.0000000000 0.9665901661 0.9562472105
0.1993310899 0.9631001949 0.9552553296
0.9542486668 0.9543204308 0.9528938532
