luts/BlackMagic/BMD_CC_EE_FILM_V1.cube
# Blackmagic Cinema Camera Film to Rec709 v1. CD_v6
# DaVinci Resolve Cube (3D LUT).
LUT_3D_SIZE 5
0.000000 0.000000 0.000000
0.324022 0.000000 0.000000
0.747814 0.000000 0.000000
0.986315 0.000000 0.000000
0.986315 0.000000 0.000000
0.000000 0.259773 0.000000
0.260846 0.239874 0.000000
0.726278 0.125245 0.000000
0.986315 0.000000 0.000000
0.986315 0.000000 0.000000
0.000000 0.627151 0.000000
0.000000 0.620235 0.000000
0.629128 0.590987 0.000000
0.986315 0.427575 0.000000
0.986315 0.000000 0.000000
0.000000 0.976960 0.000000
0.000000 0.976288 0.000000
0.000000 0.973501 0.000000
0.977858 0.959804 0.000000
0.986315 0.904795 0.000000
0.000000 0.986315 0.000000
0.000000 0.986315 0.000000
0.000000 0.986315 0.000000
0.000000 0.986315 0.000000
0.986315 0.986315 0.000000
0.000000 0.000000 0.323171
0.296409 0.000000 0.294999
0.737844 0.000000 0.114060
0.986315 0.000000 0.000000
0.986315 0.000000 0.000000
0.000000 0.246134 0.260297
0.224394 0.224876 0.223104
0.715950 0.097634 0.000000
0.986315 0.000000 0.000000
0.986315 0.000000 0.000000
0.000000 0.622353 0.000000
0.000000 0.615374 0.000000
0.616849 0.585838 0.000000
0.986315 0.420016 0.000000
0.986315 0.000000 0.000000
0.000000 0.976494 0.000000
0.000000 0.975819 0.000000
0.000000 0.973019 0.000000
0.976673 0.959259 0.000000
0.986315 0.903896 0.000000
0.000000 0.986315 0.000000
0.000000 0.986315 0.000000
0.000000 0.986315 0.000000
0.000000 0.986315 0.000000
0.986315 0.986315 0.000000
0.000000 0.000000 0.746199
0.122068 0.000000 0.736041
0.695342 0.000000 0.692701
0.986315 0.000000 0.430583
0.986315 0.000000 0.000000
0.000000 0.178460 0.724771
0.000000 0.146529 0.714250
0.671795 0.000000 0.669224
0.986315 0.000000 0.387941
0.986315 0.000000 0.000000
0.000000 0.602287 0.628135
0.000000 0.595029 0.615634
0.563386 0.564231 0.561127
0.986315 0.387352 0.060035
0.986315 0.000000 0.000000
0.000000 0.974567 0.000000
0.000000 0.973881 0.000000
0.000000 0.971031 0.000000
0.971700 0.957003 0.000000
0.986315 0.900144 0.000000
0.000000 0.986315 0.000000
0.000000 0.986315 0.000000
0.000000 0.986315 0.000000
0.000000 0.986315 0.000000
0.986315 0.986315 0.000000
0.000000 0.000000 0.986315
0.000000 0.000000 0.986315
0.440715 0.000000 0.986315
0.986315 0.000000 0.986315
0.986315 0.000000 0.934680
0.000000 0.000000 0.986315
0.000000 0.000000 0.986315
0.399007 0.000000 0.986315
0.986315 0.000000 0.986315
0.986315 0.000000 0.930915
0.000000 0.498526 0.986315
0.000000 0.489430 0.986315
0.092525 0.450027 0.986315
0.986315 0.153085 0.986315
0.986315 0.000000 0.914047
0.000000 0.965324 0.977409
0.000000 0.964578 0.976201
0.000000 0.961473 0.971124
0.945635 0.946083 0.944430
0.986315 0.881194 0.760449
0.000000 0.986315 0.000000
0.000000 0.986315 0.000000
0.000000 0.986315 0.000000
0.000000 0.986315 0.000000
0.986315 0.986315 0.000000
0.000000 0.000000 0.986315
0.000000 0.000000 0.986315
0.000000 0.000000 0.986315
0.938152 0.000000 0.986315
0.986315 0.000000 0.986315
0.000000 0.000000 0.986315
0.000000 0.000000 0.986315
0.000000 0.000000 0.986315
0.934479 0.000000 0.986315
0.986315 0.000000 0.986315
0.000000 0.000000 0.986315
0.000000 0.000000 0.986315
0.000000 0.000000 0.986315
0.918056 0.000000 0.986315
0.986315 0.000000 0.986315
0.000000 0.932171 0.986315
0.000000 0.931162 0.986315
0.000000 0.926937 0.986315
0.772549 0.905299 0.986315
0.986315 0.791451 0.986315
0.000000 0.986315 0.986315
0.000000 0.986315 0.986315
0.000000 0.986315 0.986315
0.000000 0.986315 0.986315
0.986315 0.986315 0.986315
