luts/BlackMagic/BMD_PC_EE_FILM_V1.cube
# Blackmagic Production Camera 4K Film to Rec709 v1. CD_v6
# DaVinci Resolve Cube (3D LUT).
LUT_3D_SIZE 33
0.000000 0.000000 0.000000
0.000000 0.000000 0.000000
0.050011 0.000000 0.000000
0.114236 0.000000 0.000000
0.172250 0.000000 0.000000
0.219899 0.000000 0.000000
0.262182 0.000000 0.000000
0.302107 0.000000 0.000000
0.340901 0.000000 0.000000
0.379300 0.000000 0.000000
0.417805 0.000000 0.000000
0.456782 0.000000 0.000000
0.496523 0.000000 0.000000
0.537270 0.000000 0.000000
0.579238 0.000000 0.000000
0.622620 0.000000 0.000000
0.667598 0.000000 0.000000
0.714345 0.000000 0.000000
0.763034 0.000000 0.000000
0.799872 0.000000 0.000000
0.831383 0.000000 0.000000
0.858621 0.000000 0.000000
0.882939 0.000000 0.000000
0.905147 0.000000 0.000000
0.925769 0.000000 0.000000
0.945161 0.000000 0.000000
0.963581 0.000000 0.000000
0.981216 0.000000 0.000000
0.996090 0.000000 0.000000
0.996090 0.000000 0.000000
0.996090 0.000000 0.000000
0.996090 0.000000 0.000000
0.996090 0.000000 0.000000
0.000000 0.000000 0.000000
0.000000 0.000000 0.000000
0.048611 0.000000 0.000000
0.112837 0.000000 0.000000
0.171190 0.000000 0.000000
0.219089 0.000000 0.000000
0.261517 0.000000 0.000000
0.301541 0.000000 0.000000
0.340408 0.000000 0.000000
0.378864 0.000000 0.000000
0.417415 0.000000 0.000000
0.456430 0.000000 0.000000
0.496204 0.000000 0.000000
0.536980 0.000000 0.000000
0.578972 0.000000 0.000000
0.622376 0.000000 0.000000
0.667373 0.000000 0.000000
0.714138 0.000000 0.000000
0.762842 0.000000 0.000000
0.799755 0.000000 0.000000
0.831294 0.000000 0.000000
0.858552 0.000000 0.000000
0.882884 0.000000 0.000000
0.905102 0.000000 0.000000
0.925731 0.000000 0.000000
0.945130 0.000000 0.000000
0.963555 0.000000 0.000000
0.981193 0.000000 0.000000
0.996090 0.000000 0.000000
0.996090 0.000000 0.000000
0.996090 0.000000 0.000000
0.996090 0.000000 0.000000
0.996090 0.000000 0.000000
0.000000 0.029471 0.000000
0.000000 0.029019 0.000000
0.039853 0.026190 0.000000
0.104079 0.023361 0.000000
0.164387 0.020532 0.000000
0.213943 0.017329 0.000000
0.257312 0.013756 0.000000
0.297971 0.009728 0.000000
0.337304 0.005188 0.000000
0.376123 0.000069 0.000000
0.414967 0.000000 0.000000
0.454225 0.000000 0.000000
0.494204 0.000000 0.000000
0.535158 0.000000 0.000000
0.577305 0.000000 0.000000
0.620845 0.000000 0.000000
0.665964 0.000000 0.000000
0.712837 0.000000 0.000000
0.761640 0.000000 0.000000
0.799016 0.000000 0.000000
0.830740 0.000000 0.000000
0.858119 0.000000 0.000000
0.882537 0.000000 0.000000
0.904818 0.000000 0.000000
0.925496 0.000000 0.000000
0.944933 0.000000 0.000000
0.963388 0.000000 0.000000
0.981051 0.000000 0.000000
0.996090 0.000000 0.000000
0.996090 0.000000 0.000000
0.996090 0.000000 0.000000
0.996090 0.000000 0.000000
0.996090 0.000000 0.000000
0.000000 0.075988 0.000000
0.000000 0.075536 0.000000
0.031095 0.072707 0.000000
0.095321 0.069878 0.000000
0.157267 0.067049 0.000000
0.208656 0.063846 0.000000
0.253028 0.060273 0.000000
0.294351 0.056245 0.000000
0.334167 0.051705 0.000000
0.373359 0.046586 0.000000
0.412501 0.040816 0.000000
0.452007 0.034311 0.000000
0.492196 0.026977 0.000000
0.533328 0.018711 0.000000
0.575632 0.009391 0.000000
0.619310 0.000000 0.000000
0.664551 0.000000 0.000000
0.711534 0.000000 0.000000
0.760435 0.000000 0.000000
0.798272 0.000000 0.000000
0.830182 0.000000 0.000000
0.857685 0.000000 0.000000
0.882189 0.000000 0.000000
0.904534 0.000000 0.000000
0.925260 0.000000 0.000000
0.944735 0.000000 0.000000
0.963221 0.000000 0.000000
0.980909 0.000000 0.000000
0.996090 0.000000 0.000000
0.996090 0.000000 0.000000
0.996090 0.000000 0.000000
0.996090 0.000000 0.000000
0.996090 0.000000 0.000000
0.000000 0.122505 0.000000
0.000000 0.122053 0.000000
0.022338 0.119224 0.000000
0.086563 0.116395 0.000000
0.149784 0.113566 0.000000
0.203216 0.110363 0.000000
0.248662 0.106790 0.000000
0.290680 0.102762 0.000000
0.330996 0.098222 0.000000
0.370571 0.093103 0.000000
0.410019 0.087333 0.000000
0.449777 0.080828 0.000000
0.490177 0.073494 0.000000
0.531492 0.065228 0.000000
0.573954 0.055908 0.000000
0.617770 0.045402 0.000000
0.663134 0.033559 0.000000
0.710228 0.020208 0.000000
0.759229 0.005157 0.000000
0.797523 0.000000 0.000000
0.829622 0.000000 0.000000
0.857248 0.000000 0.000000
0.881840 0.000000 0.000000
0.904249 0.000000 0.000000
0.925024 0.000000 0.000000
0.944537 0.000000 0.000000
0.963053 0.000000 0.000000
0.980766 0.000000 0.000000
0.996090 0.000000 0.000000
0.996090 0.000000 0.000000
0.996090 0.000000 0.000000
0.996090 0.000000 0.000000
0.996090 0.000000 0.000000
0.000000 0.169750 0.000000
0.000000 0.169403 0.000000
0.012421 0.167213 0.000000
0.076647 0.164991 0.000000
0.140799 0.162737 0.000000
0.196857 0.160143 0.000000
0.243611 0.157196 0.000000
0.286459 0.153801 0.000000
0.327363 0.149875 0.000000
0.367384 0.145314 0.000000
0.407187 0.139983 0.000000
0.447235 0.133704 0.000000
0.487880 0.126166 0.000000
0.529403 0.117899 0.000000
0.572046 0.108580 0.000000
0.616022 0.098074 0.000000
0.661526 0.086230 0.000000
0.708746 0.072879 0.000000
0.757859 0.057828 0.000000
0.796669 0.040861 0.000000
0.828984 0.021733 0.000000
0.856752 0.000171 0.000000
0.881443 0.000000 0.000000
0.903925 0.000000 0.000000
0.924756 0.000000 0.000000
0.944313 0.000000 0.000000
0.962863 0.000000 0.000000
0.980605 0.000000 0.000000
0.996090 0.000000 0.000000
0.996090 0.000000 0.000000
0.996090 0.000000 0.000000
0.996090 0.000000 0.000000
0.996090 0.000000 0.000000
0.000000 0.209667 0.000000
0.000000 0.209391 0.000000
0.001360 0.207658 0.000000
0.065586 0.205909 0.000000
0.129812 0.204143 0.000000
0.189486 0.202124 0.000000
0.237835 0.199844 0.000000
0.281665 0.197240 0.000000
0.323256 0.194257 0.000000
0.363792 0.190834 0.000000
0.404001 0.186893 0.000000
0.444381 0.182338 0.000000
0.485302 0.177050 0.000000
0.527062 0.170875 0.000000
0.569909 0.163610 0.000000
0.614064 0.154981 0.000000
0.659727 0.144592 0.000000
0.707088 0.131629 0.000000
0.756329 0.116578 0.000000
0.795709 0.099610 0.000000
0.828268 0.080483 0.000000
0.856196 0.058920 0.000000
0.880999 0.034612 0.000000
0.903563 0.007209 0.000000
0.924456 0.000000 0.000000
0.944062 0.000000 0.000000
0.962651 0.000000 0.000000
0.980424 0.000000 0.000000
0.996090 0.000000 0.000000
0.996090 0.000000 0.000000
0.996090 0.000000 0.000000
0.996090 0.000000 0.000000
0.996090 0.000000 0.000000
0.000000 0.246398 0.000000
0.000000 0.246168 0.000000
0.000000 0.244722 0.000000
0.053117 0.243267 0.000000
0.117343 0.241802 0.000000
0.180782 0.240131 0.000000
0.231130 0.238252 0.000000
0.276149 0.236114 0.000000
0.318553 0.233677 0.000000
0.359693 0.230895 0.000000
0.400374 0.227714 0.000000
0.441137 0.224067 0.000000
0.482377 0.219875 0.000000
0.524408 0.215041 0.000000
0.567489 0.209442 0.000000
0.611848 0.202926 0.000000
0.657692 0.195292 0.000000
0.705214 0.186273 0.000000
0.754598 0.175497 0.000000
0.794616 0.162417 0.000000
0.827456 0.146160 0.000000
0.855566 0.125149 0.000000
0.880496 0.100841 0.000000
0.903153 0.073439 0.000000
0.924117 0.042547 0.000000
0.943778 0.007723 0.000000
0.962412 0.000000 0.000000
0.980220 0.000000 0.000000
0.996090 0.000000 0.000000
0.996090 0.000000 0.000000
0.996090 0.000000 0.000000
0.996090 0.000000 0.000000
0.996090 0.000000 0.000000
0.000000 0.281545 0.000000
0.000000 0.281346 0.000000
0.000000 0.280104 0.000000
0.039061 0.278855 0.000000
0.103287 0.277600 0.000000
0.170388 0.276171 0.000000
0.223301 0.274567 0.000000
0.269776 0.272746 0.000000
0.313154 0.270677 0.000000
0.355007 0.268323 0.000000
0.396239 0.265641 0.000000
0.437446 0.262580 0.000000
0.479054 0.259080 0.000000
0.521397 0.255070 0.000000
0.564746 0.250463 0.000000
0.609339 0.245152 0.000000
0.655389 0.239006 0.000000
0.703094 0.231859 0.000000
0.752643 0.223495 0.000000
0.793370 0.213628 0.000000
0.826533 0.201863 0.000000
0.854851 0.187621 0.000000
0.879926 0.169999 0.000000
0.902689 0.147404 0.000000
0.923734 0.117208 0.000000
0.943457 0.082384 0.000000
0.962141 0.043125 0.000000
0.979990 0.000000 0.000000
0.996090 0.000000 0.000000
0.996090 0.000000 0.000000
0.996090 0.000000 0.000000
0.996090 0.000000 0.000000
0.996090 0.000000 0.000000
0.000000 0.315983 0.000000
0.000000 0.315809 0.000000
0.000000 0.314720 0.000000
0.023215 0.313627 0.000000
0.087441 0.312530 0.000000
0.157780 0.311282 0.000000
0.214092 0.309883 0.000000
0.262382 0.308297 0.000000
0.306937 0.306498 0.000000
0.349637 0.304456 0.000000
0.391518 0.302135 0.000000
0.433242 0.299493 0.000000
0.475276 0.296483 0.000000
0.517978 0.293048 0.000000
0.561635 0.289120 0.000000
0.606496 0.284617 0.000000
0.652781 0.279443 0.000000
0.700695 0.273477 0.000000
0.750430 0.266569 0.000000
0.791949 0.258532 0.000000
0.825483 0.249120 0.000000
0.854040 0.238007 0.000000
0.879280 0.224740 0.000000
0.902164 0.208653 0.000000
0.923300 0.188694 0.000000
0.943095 0.162987 0.000000
0.961835 0.127292 0.000000
0.979730 0.083036 0.000000
0.996090 0.033145 0.000000
0.996090 0.000000 0.000000
0.996090 0.000000 0.000000
0.996090 0.000000 0.000000
0.996090 0.000000 0.000000
0.000000 0.350269 0.000000
0.000000 0.350115 0.000000
0.000000 0.349147 0.000000
0.005351 0.348177 0.000000
0.069577 0.347204 0.000000
0.142130 0.346098 0.000000
0.203155 0.344859 0.000000
0.253754 0.343457 0.000000
0.299753 0.341869 0.000000
0.343467 0.340067 0.000000
0.386114 0.338024 0.000000
0.428445 0.335703 0.000000
0.470975 0.333064 0.000000
0.514091 0.330060 0.000000
0.558103 0.326636 0.000000
0.603271 0.322726 0.000000
0.649826 0.318252 0.000000
0.697979 0.313121 0.000000
0.747927 0.307219 0.000000
0.790325 0.300407 0.000000
0.824287 0.292511 0.000000
0.853118 0.283308 0.000000
0.878547 0.272509 0.000000
0.901569 0.259725 0.000000
0.922809 0.244405 0.000000
0.942685 0.225732 0.000000
0.961489 0.202371 0.000000
0.979436 0.171838 0.000000
0.996090 0.128027 0.000000
0.996090 0.071785 0.000000
0.996090 0.008382 0.000000
0.996090 0.000000 0.000000
0.996090 0.000000 0.000000
0.000000 0.384792 0.000000
0.000000 0.384654 0.000000
0.000000 0.383786 0.000000
0.000000 0.382916 0.000000
0.049439 0.382044 0.000000
0.122163 0.381054 0.000000
0.189991 0.379946 0.000000
0.243615 0.378692 0.000000
0.291411 0.377273 0.000000
0.336356 0.375666 0.000000
0.379916 0.373845 0.000000
0.422961 0.371779 0.000000
0.466070 0.369435 0.000000
0.509669 0.366771 0.000000
0.554090 0.363741 0.000000
0.599612 0.360291 0.000000
0.646476 0.356354 0.000000
0.694902 0.351856 0.000000
0.745093 0.346704 0.000000
0.788465 0.340789 0.000000
0.822923 0.333977 0.000000
0.852069 0.326101 0.000000
0.877715 0.316953 0.000000
0.900895 0.306264 0.000000
0.922253 0.293681 0.000000
0.942220 0.278717 0.000000
0.961098 0.260676 0.000000
0.979103 0.238485 0.000000
0.996090 0.210313 0.000000
0.996090 0.172465 0.000000
0.996090 0.115344 0.000000
0.996090 0.043868 0.000000
0.996090 0.000000 0.000000
0.000000 0.419850 0.000000
0.000000 0.419724 0.000000
0.000000 0.418940 0.000000
0.000000 0.418155 0.000000
0.026738 0.417367 0.000000
0.099461 0.416474 0.000000
0.173838 0.415474 0.000000
0.231586 0.414344 0.000000
0.281670 0.413066 0.000000
0.328127 0.411619 0.000000
0.372786 0.409982 0.000000
0.416678 0.408126 0.000000
0.460467 0.406023 0.000000
0.504628 0.403636 0.000000
0.549525 0.400926 0.000000
0.595455 0.397846 0.000000
0.642675 0.394339 0.000000
0.691413 0.390343 0.000000
0.741883 0.385780 0.000000
0.786330 0.380560 0.000000
0.821365 0.374575 0.000000
0.850875 0.367693 0.000000
0.876770 0.359751 0.000000
0.900129 0.350550 0.000000
0.921623 0.339833 0.000000
0.941695 0.327266 0.000000
0.960655 0.312402 0.000000
0.978727 0.294614 0.000000
0.996079 0.272971 0.000000
0.996090 0.245976 0.000000
0.996090 0.210879 0.000000
0.996090 0.161293 0.000000
0.996090 0.083873 0.000000
0.000000 0.455681 0.000000
0.000000 0.455567 0.000000
0.000000 0.454855 0.000000
0.000000 0.454141 0.000000
0.001146 0.453425 0.000000
0.073869 0.452614 0.000000
0.153417 0.451707 0.000000
0.217131 0.450682 0.000000
0.270209 0.449523 0.000000
0.318557 0.448212 0.000000
0.364555 0.446729 0.000000
0.409461 0.445051 0.000000
0.454055 0.443150 0.000000
0.498875 0.440995 0.000000
0.544325 0.438552 0.000000
0.590728 0.435778 0.000000
0.638357 0.432626 0.000000
0.687456 0.429040 0.000000
0.738244 0.424956 0.000000
0.783873 0.420296 0.000000
0.819582 0.414970 0.000000
0.849513 0.408870 0.000000
0.875694 0.401864 0.000000
0.899260 0.393792 0.000000
0.920908 0.384456 0.000000
0.941099 0.373608 0.000000
0.960154 0.360925 0.000000
0.978302 0.345983 0.000000
0.995716 0.328196 0.000000
0.996090 0.306720 0.000000
0.996090 0.280245 0.000000
0.996090 0.246512 0.000000
0.996090 0.200864 0.000000
0.000000 0.492491 0.000000
0.000000 0.492387 0.000000
0.000000 0.491737 0.000000
0.000000 0.491085 0.000000
0.000000 0.490432 0.000000
0.045019 0.489692 0.000000
0.126134 0.488865 0.000000
0.199436 0.487930 0.000000
0.256593 0.486874 0.000000
0.307359 0.485680 0.000000
0.355011 0.484331 0.000000
0.401144 0.482804 0.000000
0.446697 0.481075 0.000000
0.492294 0.479118 0.000000
0.538391 0.476901 0.000000
0.585344 0.474387 0.000000
0.633448 0.471534 0.000000
0.682962 0.468293 0.000000
0.734117 0.464608 0.000000
0.781035 0.460413 0.000000
0.817536 0.455629 0.000000
0.847957 0.450165 0.000000
0.874469 0.443912 0.000000
0.898271 0.436737 0.000000
0.920096 0.428480 0.000000
0.940424 0.418945 0.000000
0.959586 0.407885 0.000000
0.977820 0.394984 0.000000
0.995305 0.379830 0.000000
0.996090 0.361863 0.000000
0.996090 0.340290 0.000000
0.996090 0.313916 0.000000
0.996090 0.280767 0.000000
0.000000 0.530463 0.000000
0.000000 0.530368 0.000000
0.000000 0.529772 0.000000
0.000000 0.529174 0.000000
0.000000 0.528576 0.000000
0.012496 0.527898 0.000000
0.093611 0.527141 0.000000
0.177151 0.526285 0.000000
0.240197 0.525319 0.000000
0.294150 0.524227 0.000000
0.343885 0.522993 0.000000
0.391522 0.521598 0.000000
0.438229 0.520020 0.000000
0.484750 0.518234 0.000000
0.531609 0.516212 0.000000
0.579204 0.513921 0.000000
0.627860 0.511324 0.000000
0.677853 0.508378 0.000000
0.729430 0.505033 0.000000
0.777746 0.501231 0.000000
0.815184 0.496904 0.000000
0.846177 0.491972 0.000000
0.873072 0.486342 0.000000
0.897147 0.479903 0.000000
0.919174 0.472520 0.000000
0.939657 0.464033 0.000000
0.958942 0.454243 0.000000
0.977275 0.442903 0.000000
0.994839 0.429699 0.000000
0.996090 0.414226 0.000000
0.996090 0.395936 0.000000
0.996090 0.374070 0.000000
0.996090 0.347501 0.000000
0.000000 0.569765 0.000000
0.000000 0.569677 0.000000
0.000000 0.569129 0.000000
0.000000 0.568580 0.000000
0.000000 0.568030 0.000000
0.000000 0.567407 0.000000
0.056947 0.566711 0.000000
0.147663 0.565926 0.000000
0.220065 0.565039 0.000000
0.278401 0.564036 0.000000
0.330826 0.562904 0.000000
0.380336 0.561625 0.000000
0.428449 0.560178 0.000000
0.476078 0.558542 0.000000
0.523840 0.556691 0.000000
0.572190 0.554595 0.000000
0.621489 0.552222 0.000000
0.672039 0.549531 0.000000
0.724104 0.546480 0.000000
0.773916 0.543016 0.000000
0.812470 0.539079 0.000000
0.844134 0.534601 0.000000
0.871475 0.529499 0.000000
0.895864 0.523677 0.000000
0.918125 0.517022 0.000000
0.938787 0.509397 0.000000
0.958212 0.500638 0.000000
0.976657 0.490543 0.000000
0.994313 0.478864 0.000000
0.996090 0.465285 0.000000
0.996090 0.449402 0.000000
0.996090 0.430673 0.000000
0.996090 0.408355 0.000000
0.000000 0.610555 0.000000
0.000000 0.610474 0.000000
0.000000 0.609969 0.000000
0.000000 0.609463 0.000000
0.000000 0.608957 0.000000
0.000000 0.608383 0.000000
0.015616 0.607742 0.000000
0.107058 0.607018 0.000000
0.194588 0.606201 0.000000
0.259342 0.605279 0.000000
0.315357 0.604237 0.000000
0.367252 0.603060 0.000000
0.417103 0.601730 0.000000
0.466074 0.600227 0.000000
0.514916 0.598526 0.000000
0.564159 0.596603 0.000000
0.614213 0.594425 0.000000
0.665412 0.591959 0.000000
0.718043 0.589165 0.000000
0.769434 0.585996 0.000000
0.809329 0.582399 0.000000
0.841786 0.578313 0.000000
0.869646 0.573665 0.000000
0.894401 0.568371 0.000000
0.916931 0.562334 0.000000
0.937798 0.555435 0.000000
0.957383 0.547535 0.000000
0.975956 0.538465 0.000000
0.993716 0.528021 0.000000
0.996090 0.515949 0.000000
0.996090 0.501930 0.000000
0.996090 0.485555 0.000000
0.996090 0.466286 0.000000
0.000000 0.652988 0.000000
0.000000 0.652914 0.000000
0.000000 0.652447 0.000000
0.000000 0.651980 0.000000
0.000000 0.651512 0.000000
0.000000 0.650982 0.000000
0.000000 0.650391 0.000000
0.060464 0.649723 0.000000
0.160562 0.648969 0.000000
0.235764 0.648118 0.000000
0.296808 0.647157 0.000000
0.351826 0.646072 0.000000
0.403867 0.644846 0.000000
0.454489 0.643461 0.000000
0.504633 0.641895 0.000000
0.554941 0.640124 0.000000
0.605887 0.638121 0.000000
0.657847 0.635854 0.000000
0.711137 0.633286 0.000000
0.766033 0.630377 0.000000
0.805678 0.627079 0.000000
0.839076 0.623336 0.000000
0.867547 0.619084 0.000000
0.892728 0.614249 0.000000
0.915569 0.608744 0.000000
0.936671 0.602467 0.000000
0.956441 0.595298 0.000000
0.975160 0.587091 0.000000
0.993039 0.577675 0.000000
0.996090 0.566839 0.000000
0.996090 0.554323 0.000000
0.996090 0.539803 0.000000
0.996090 0.522864 0.000000
0.000000 0.697216 0.000000
0.000000 0.697147 0.000000
0.000000 0.696715 0.000000
0.000000 0.696283 0.000000
0.000000 0.695851 0.000000
0.000000 0.695360 0.000000
0.000000 0.694813 0.000000
0.007938 0.694196 0.000000
0.111022 0.693499 0.000000
0.205545 0.692712 0.000000
0.274177 0.691824 0.000000
0.333448 0.690822 0.000000
0.388317 0.689689 0.000000
0.441000 0.688410 0.000000
0.492739 0.686964 0.000000
0.544329 0.685330 0.000000
0.596336 0.683483 0.000000
0.649194 0.681393 0.000000
0.703256 0.679028 0.000000
0.758825 0.676351 0.000000
0.801411 0.673317 0.000000
0.835940 0.669877 0.000000
0.865133 0.665974 0.000000
0.890810 0.661542 0.000000
0.914013 0.656503 0.000000
0.935388 0.650767 0.000000
0.955369 0.644228 0.000000
0.974257 0.636762 0.000000
0.992271 0.628219 0.000000
0.996090 0.618420 0.000000
0.996090 0.607150 0.000000
0.996090 0.594142 0.000000
0.996090 0.579063 0.000000
0.000000 0.743391 0.000000
0.000000 0.743327 0.000000
0.000000 0.742927 0.000000
0.000000 0.742527 0.000000
0.000000 0.742126 0.000000
0.000000 0.741672 0.000000
0.000000 0.741165 0.000000
0.000000 0.740593 0.000000
0.051809 0.739947 0.000000
0.164159 0.739219 0.000000
0.245820 0.738397 0.000000
0.311228 0.737469 0.000000
0.369875 0.736421 0.000000
0.425195 0.735238 0.000000
0.478915 0.733901 0.000000
0.532067 0.732390 0.000000
0.585349 0.730683 0.000000
0.639273 0.728753 0.000000
0.694243 0.726569 0.000000
0.750599 0.724099 0.000000
0.796394 0.721301 0.000000
0.832295 0.718133 0.000000
0.862346 0.714540 0.000000
0.888608 0.710465 0.000000
0.912232 0.705837 0.000000
0.933923 0.700576 0.000000
0.954148 0.694589 0.000000
0.973229 0.687765 0.000000
0.991398 0.679976 0.000000
0.996090 0.671066 0.000000
0.996090 0.660851 0.000000
0.996090 0.649107 0.000000
0.996090 0.635559 0.000000
0.000000 0.784415 0.000000
0.000000 0.784371 0.000000
0.000000 0.784097 0.000000
0.000000 0.783823 0.000000
0.000000 0.783548 0.000000
0.000000 0.783235 0.000000
0.000000 0.782886 0.000000
0.000000 0.782490 0.000000
0.000000 0.782043 0.000000
0.101266 0.781536 0.000000
0.208655 0.780962 0.000000
0.283782 0.780312 0.000000
0.347723 0.779574 0.000000
0.406517 0.778736 0.000000
0.462750 0.777784 0.000000
0.517834 0.776700 0.000000
0.572664 0.775466 0.000000
0.627865 0.774058 0.000000
0.683914 0.772449 0.000000
0.741196 0.770606 0.000000
0.790450 0.771214 0.000000
0.828035 0.768288 0.000000
0.859117 0.764974 0.000000
0.886072 0.761217 0.000000
0.910189 0.756955 0.000000
0.932248 0.752116 0.000000
0.952755 0.746616 0.000000
0.972059 0.740358 0.000000
0.990407 0.733227 0.000000
0.996090 0.725088 0.000000
0.996090 0.715782 0.000000
0.996090 0.705115 0.000000
0.996090 0.692856 0.000000
0.000000 0.817528 0.000000
0.000000 0.817496 0.000000
0.000000 0.817293 0.000000
0.000000 0.817090 0.000000
0.000000 0.816887 0.000000
0.000000 0.816656 0.000000
0.000000 0.816398 0.000000
0.000000 0.816106 0.000000
0.000000 0.815777 0.000000
0.026015 0.815404 0.000000
0.155146 0.814982 0.000000
0.248698 0.814505 0.000000
0.320628 0.813964 0.000000
0.384191 0.813351 0.000000
0.443698 0.812656 0.000000
0.501218 0.811868 0.000000
0.557955 0.810972 0.000000
0.614705 0.809953 0.000000
0.672044 0.808793 0.000000
0.730423 0.807471 0.000000
0.783341 0.805961 0.000000
0.823027 0.804234 0.000000
0.855361 0.802254 0.000000
0.883141 0.799978 0.000000
0.907840 0.797355 0.000000
0.930328 0.794321 0.000000
0.951164 0.790798 0.000000
0.970724 0.786686 0.000000
0.989278 0.781859 0.000000
0.996090 0.776152 0.000000
0.996090 0.772250 0.000000
0.996090 0.762515 0.000000
0.996090 0.751361 0.000000
0.000000 0.845815 0.000000
0.000000 0.845790 0.000000
0.000000 0.845634 0.000000
0.000000 0.845477 0.000000
0.000000 0.845319 0.000000
0.000000 0.845141 0.000000
0.000000 0.844942 0.000000
0.000000 0.844717 0.000000
0.000000 0.844463 0.000000
0.000000 0.844175 0.000000
0.072188 0.843850 0.000000
0.200906 0.843483 0.000000
0.286545 0.843068 0.000000
0.357074 0.842597 0.000000
0.421010 0.842065 0.000000
0.481678 0.841461 0.000000
0.540808 0.840777 0.000000
0.599459 0.840000 0.000000
0.658359 0.839118 0.000000
0.718049 0.838115 0.000000
0.774737 0.836974 0.000000
0.817095 0.835672 0.000000
0.850966 0.834186 0.000000
0.879740 0.832487 0.000000
0.905130 0.830540 0.000000
0.928124 0.828303 0.000000
0.949342 0.825725 0.000000
0.969200 0.822744 0.000000
0.987991 0.819285 0.000000
0.996090 0.815251 0.000000
0.996090 0.810519 0.000000
0.996090 0.804928 0.000000
0.996090 0.798267 0.000000
0.000000 0.870868 0.000000
0.000000 0.870848 0.000000
0.000000 0.870723 0.000000
0.000000 0.870598 0.000000
0.000000 0.870473 0.000000
0.000000 0.870331 0.000000
0.000000 0.870173 0.000000
0.000000 0.869994 0.000000
0.000000 0.869792 0.000000
0.000000 0.869563 0.000000
0.000000 0.869305 0.000000
0.124238 0.869014 0.000000
0.241546 0.868684 0.000000
0.323340 0.868312 0.000000
0.393600 0.867890 0.000000
0.458476 0.867413 0.000000
0.520677 0.866872 0.000000
0.581704 0.866260 0.000000
0.642515 0.865565 0.000000
0.703788 0.864777 0.000000
0.766039 0.863882 0.000000
0.810001 0.862863 0.000000
0.845793 0.861704 0.000000
0.875777 0.860382 0.000000
0.901993 0.858873 0.000000
0.925584 0.857147 0.000000
0.947251 0.855167 0.000000
0.967457 0.852893 0.000000
0.986523 0.850271 0.000000
0.996090 0.847239 0.000000
0.996090 0.843717 0.000000
0.996090 0.839608 0.000000
0.996090 0.834783 0.000000
0.000000 0.893616 0.000000
0.000000 0.893600 0.000000
0.000000 0.893498 0.000000
0.000000 0.893396 0.000000
0.000000 0.893295 0.000000
0.000000 0.893179 0.000000
0.000000 0.893050 0.000000
0.000000 0.892905 0.000000
0.000000 0.892741 0.000000
0.000000 0.892556 0.000000
0.000000 0.892346 0.000000
0.016432 0.892110 0.000000
0.175578 0.891843 0.000000
0.279690 0.891541 0.000000
0.359777 0.891199 0.000000
0.430559 0.890813 0.000000
0.496831 0.890376 0.000000
0.560892 0.889881 0.000000
0.624083 0.889321 0.000000
0.687290 0.888686 0.000000
0.751154 0.887966 0.000000
0.801414 0.887148 0.000000
0.839655 0.886219 0.000000
0.871131 0.885162 0.000000
0.898347 0.883958 0.000000
0.922649 0.882585 0.000000
0.944846 0.881016 0.000000
0.965458 0.879221 0.000000
0.984844 0.877161 0.000000
0.996090 0.874792 0.000000
0.996090 0.872059 0.000000
0.996090 0.868894 0.000000
0.996090 0.865214 0.000000
0.000000 0.914648 0.000000
0.000000 0.914635 0.000000
0.000000 0.914551 0.000000
0.000000 0.914467 0.000000
0.000000 0.914383 0.000000
0.000000 0.914288 0.000000
0.000000 0.914181 0.000000
0.000000 0.914061 0.000000
0.000000 0.913926 0.000000
0.000000 0.913773 0.000000
0.000000 0.913600 0.000000
0.000000 0.913405 0.000000
0.061384 0.913185 0.000000
0.218670 0.912936 0.000000
0.316618 0.912655 0.000000
0.396324 0.912337 0.000000
0.468232 0.911978 0.000000
0.536284 0.911571 0.000000
0.602502 0.911111 0.000000
0.668110 0.910590 0.000000
0.733943 0.910000 0.000000
0.790859 0.909331 0.000000
0.832298 0.908572 0.000000
0.865647 0.907709 0.000000
0.894086 0.906729 0.000000
0.919245 0.905614 0.000000
